;FLAVOR:Marlin
;TIME:7156
;Filament used: 5.27907m
;Layer height: 0.16
;MINX:89.7
;MINY:107.7
;MINZ:0.2
;MAXX:145.3
;MAXY:127.3
;MAXZ:40
;Generated with Cura_SteamEngine 4.6.1
M140 S60
M105
M190 S60
M104 S200
M105
M109 S200
M82 ;absolute extrusion mode
; Ender 3 Custom Start G-code
G92 E0 ; Reset Extruder
G28 ; Home all axes
G1 Z2.0 F3000 ; Move Z Axis up little to prevent scratching of Heat Bed
G1 X0.1 Y20 Z0.3 F5000.0 ; Move to start position
G1 X0.1 Y200.0 Z0.3 F1500.0 E15 ; Draw the first line
G1 X0.4 Y200.0 Z0.3 F5000.0 ; Move to side a little
G1 X0.4 Y20 Z0.3 F1500.0 E30 ; Draw the second line
G92 E0 ; Reset Extruder
G1 Z2.0 F3000 ; Move Z Axis up little to prevent scratching of Heat Bed
G1 X5 Y20 Z0.3 F5000.0 ; Move over to prevent blob squish
G92 E0
G92 E0
G1 F1500 E-6.5
;LAYER_COUNT:201
;LAYER:0
M107
;MESH:Part1.STL
G0 F6000 X138.5 Y126.5 Z0.2
;TYPE:WALL-INNER
G1 F1500 E0
G1 F1200 X138.5 Y114.5 E0.39912
G1 X96.5 Y114.5 E1.79605
G1 X96.5 Y126.5 E2.19517
G1 X90.5 Y126.5 E2.39473
G1 X90.5 Y108.5 E2.99341
G1 X144.5 Y108.5 E4.78946
G1 X144.5 Y126.5 E5.38814
G1 X138.5 Y126.5 E5.5877
G0 F6000 X138.1 Y126.9
G1 F1200 X138.1 Y114.9 E5.98682
G1 X96.9 Y114.9 E7.35714
G1 X96.9 Y126.9 E7.75626
G1 X90.1 Y126.9 E7.98243
G1 X90.1 Y108.1 E8.60772
G1 X144.9 Y108.1 E10.43038
G1 X144.9 Y126.9 E11.05567
G1 X138.1 Y126.9 E11.28184
G0 F6000 X137.7 Y127.3
;TYPE:WALL-OUTER
G1 F1200 X137.7 Y115.3 E11.68096
G1 X97.3 Y115.3 E13.02467
G1 X97.3 Y127.3 E13.42379
G1 X89.7 Y127.3 E13.67657
G1 X89.7 Y107.7 E14.32847
G1 X145.3 Y107.7 E16.17773
G1 X145.3 Y127.3 E16.82963
G1 X137.7 Y127.3 E17.08241
G0 F6000 X137.97 Y127.03
G0 X138.61 Y126.11
G0 X138.89 Y126.11
;TYPE:SKIN
G1 F1200 X138.89 Y114.11 E17.48153
G1 X96.11 Y114.11 E18.9044
G1 X96.11 Y126.11 E19.30352
G1 X90.89 Y126.11 E19.47714
G1 X90.89 Y108.89 E20.04987
G1 X144.11 Y108.89 E21.81998
G1 X144.11 Y126.11 E22.39272
G1 X138.89 Y126.11 E22.56634
G0 F6000 X138.61 Y126.11
G0 X138.682 Y126.318
G0 X144.318 Y126.318
G0 X144.39 Y109.443
G0 X143.949 Y109.443
G1 F1200 X143.556 Y109.05 E22.58482
G0 F6000 X142.991 Y109.05
G1 F1200 X143.949 Y110.008 E22.62988
G0 F6000 X143.949 Y110.574
G1 F1200 X142.425 Y109.05 E22.70157
G0 F6000 X141.859 Y109.05
G1 F1200 X143.949 Y111.14 E22.79987
G0 F6000 X143.949 Y111.705
G1 F1200 X141.294 Y109.05 E22.92476
G0 F6000 X140.728 Y109.05
G1 F1200 X143.949 Y112.271 E23.07626
G0 F6000 X143.949 Y112.837
G1 F1200 X140.162 Y109.05 E23.25439
G0 F6000 X139.597 Y109.05
G1 F1200 X143.949 Y113.402 E23.4591
G0 F6000 X143.949 Y113.968
G1 F1200 X139.031 Y109.05 E23.69043
G0 F6000 X138.465 Y109.05
G1 F1200 X143.949 Y114.534 E23.94838
G0 F6000 X143.949 Y115.1
G1 F1200 X137.899 Y109.05 E24.23295
G0 F6000 X137.334 Y109.05
G1 F1200 X143.949 Y115.665 E24.5441
G0 F6000 X143.949 Y116.231
G1 F1200 X136.768 Y109.05 E24.88187
G0 F6000 X136.202 Y109.05
G1 F1200 X143.949 Y116.797 E25.24627
G0 F6000 X143.949 Y117.362
G1 F1200 X135.637 Y109.05 E25.63724
G0 F6000 X135.071 Y109.05
G1 F1200 X143.949 Y117.928 E26.05483
G0 F6000 X143.949 Y118.494
G1 F1200 X134.505 Y109.05 E26.49905
G0 F6000 X133.94 Y109.05
G1 F1200 X138.839 Y113.949 E26.72948
G0 F6000 X139.049 Y114.159
G1 F1200 X143.949 Y119.059 E26.95996
G0 F6000 X143.949 Y119.625
G1 F1200 X139.049 Y114.725 E27.19044
G0 F6000 X139.049 Y115.29
G1 F1200 X143.949 Y120.191 E27.42095
G0 F6000 X143.949 Y120.756
G1 F1200 X139.049 Y115.856 E27.65143
G0 F6000 X139.049 Y116.422
G1 F1200 X143.949 Y121.322 E27.88191
G0 F6000 X143.949 Y121.888
G1 F1200 X139.049 Y116.987 E28.11241
G0 F6000 X139.049 Y117.553
G1 F1200 X143.949 Y122.453 E28.3429
G0 F6000 X143.949 Y123.019
G1 F1200 X139.049 Y118.119 E28.57338
G0 F6000 X139.049 Y118.685
G1 F1200 X143.949 Y123.585 E28.80386
G0 F6000 X143.949 Y124.15
G1 F1200 X139.049 Y119.25 E29.03434
G0 F6000 X139.049 Y119.816
G1 F1200 X143.949 Y124.716 E29.26482
G0 F6000 X143.949 Y125.282
G1 F1200 X139.049 Y120.382 E29.4953
G0 F6000 X139.049 Y120.947
G1 F1200 X143.949 Y125.848 E29.7258
G0 F6000 X143.486 Y125.949
G1 F1200 X139.049 Y121.513 E29.93448
G0 F6000 X139.049 Y122.079
G1 F1200 X142.92 Y125.949 E30.11654
G0 F6000 X142.354 Y125.949
G1 F1200 X139.049 Y122.644 E30.272
G0 F6000 X139.049 Y123.21
G1 F1200 X141.789 Y125.949 E30.40086
G0 F6000 X141.223 Y125.949
G1 F1200 X139.049 Y123.776 E30.50309
G0 F6000 X139.049 Y124.341
G1 F1200 X140.657 Y125.949 E30.57873
G0 F6000 X140.091 Y125.949
G1 F1200 X139.049 Y124.907 E30.62774
G0 F6000 X139.049 Y125.473
G1 F1200 X139.526 Y125.949 E30.65015
G0 F6000 X139.526 Y126.39
G0 X138.682 Y126.318
G0 X138.274 Y114.39
G0 X138.274 Y113.949
G1 F1200 X133.374 Y109.05 E30.88061
G0 F6000 X132.808 Y109.05
G1 F1200 X137.708 Y113.949 E31.11107
G0 F6000 X137.142 Y113.949
G1 F1200 X132.243 Y109.05 E31.3415
G0 F6000 X131.677 Y109.05
G1 F1200 X136.576 Y113.949 E31.57193
G0 F6000 X136.011 Y113.949
G1 F1200 X131.111 Y109.05 E31.80239
G0 F6000 X130.546 Y109.05
G1 F1200 X135.445 Y113.949 E32.03283
G0 F6000 X134.879 Y113.949
G1 F1200 X129.98 Y109.05 E32.26326
G0 F6000 X129.414 Y109.05
G1 F1200 X134.314 Y113.949 E32.49372
G0 F6000 X133.748 Y113.949
G1 F1200 X128.848 Y109.05 E32.72417
G0 F6000 X128.283 Y109.05
G1 F1200 X133.182 Y113.949 E32.95461
G0 F6000 X132.617 Y113.949
G1 F1200 X127.717 Y109.05 E33.18507
G0 F6000 X127.151 Y109.05
G1 F1200 X132.051 Y113.949 E33.41552
G0 F6000 X131.485 Y113.949
G1 F1200 X126.586 Y109.05 E33.64596
G0 F6000 X126.02 Y109.05
G1 F1200 X130.92 Y113.949 E33.87641
G0 F6000 X130.354 Y113.949
G1 F1200 X125.454 Y109.05 E34.10687
G0 F6000 X124.889 Y109.05
G1 F1200 X129.788 Y113.949 E34.33731
G0 F6000 X129.223 Y113.949
G1 F1200 X124.323 Y109.05 E34.56776
G0 F6000 X123.757 Y109.05
G1 F1200 X128.657 Y113.949 E34.79822
G0 F6000 X128.091 Y113.949
G1 F1200 X123.192 Y109.05 E35.02865
G0 F6000 X122.626 Y109.05
G1 F1200 X127.526 Y113.949 E35.25911
G0 F6000 X126.96 Y113.949
G1 F1200 X122.06 Y109.05 E35.48957
G0 F6000 X121.495 Y109.05
G1 F1200 X126.394 Y113.949 E35.72
G0 F6000 X125.828 Y113.949
G1 F1200 X120.929 Y109.05 E35.95044
G0 F6000 X120.363 Y109.05
G1 F1200 X125.263 Y113.949 E36.18089
G0 F6000 X124.697 Y113.949
G1 F1200 X119.798 Y109.05 E36.41133
G0 F6000 X119.232 Y109.05
G1 F1200 X124.131 Y113.949 E36.64176
G0 F6000 X123.566 Y113.949
G1 F1200 X118.666 Y109.05 E36.87222
G0 F6000 X118.1 Y109.05
G1 F1200 X123 Y113.949 E37.10268
G0 F6000 X122.434 Y113.949
G1 F1200 X117.535 Y109.05 E37.33311
G0 F6000 X116.969 Y109.05
G1 F1200 X121.869 Y113.949 E37.56357
G0 F6000 X121.303 Y113.949
G1 F1200 X116.403 Y109.05 E37.79403
G0 F6000 X115.838 Y109.05
G1 F1200 X120.737 Y113.949 E38.02446
G0 F6000 X120.172 Y113.949
G1 F1200 X115.272 Y109.05 E38.25492
G0 F6000 X114.706 Y109.05
G1 F1200 X119.606 Y113.949 E38.48538
G0 F6000 X119.04 Y113.949
G1 F1200 X114.141 Y109.05 E38.71581
G0 F6000 X113.575 Y109.05
G1 F1200 X118.475 Y113.949 E38.94627
G0 F6000 X117.909 Y113.949
G1 F1200 X113.009 Y109.05 E39.17672
G0 F6000 X112.444 Y109.05
G1 F1200 X117.342 Y113.948 E39.40711
G0 F6000 X116.777 Y113.948
G1 F1200 X111.878 Y109.05 E39.63752
G0 F6000 X111.312 Y109.05
G1 F1200 X116.211 Y113.948 E39.86793
G0 F6000 X115.645 Y113.948
G1 F1200 X110.747 Y109.05 E40.09832
G0 F6000 X110.181 Y109.05
G1 F1200 X115.08 Y113.948 E40.32873
G0 F6000 X114.514 Y113.948
G1 F1200 X109.615 Y109.05 E40.55914
G0 F6000 X109.05 Y109.05
G1 F1200 X113.948 Y113.948 E40.78953
G0 F6000 X113.383 Y113.948
G1 F1200 X108.484 Y109.05 E41.01994
G0 F6000 X107.918 Y109.05
G1 F1200 X112.817 Y113.948 E41.25035
G0 F6000 X112.251 Y113.948
G1 F1200 X107.352 Y109.05 E41.48076
G0 F6000 X106.787 Y109.05
G1 F1200 X111.686 Y113.948 E41.71117
G0 F6000 X111.12 Y113.948
G1 F1200 X106.221 Y109.05 E41.94158
G0 F6000 X105.655 Y109.05
G1 F1200 X110.554 Y113.948 E42.17199
G0 F6000 X109.989 Y113.948
G1 F1200 X105.09 Y109.05 E42.4024
G0 F6000 X104.524 Y109.05
G1 F1200 X109.423 Y113.948 E42.63281
G0 F6000 X108.857 Y113.948
G1 F1200 X103.958 Y109.05 E42.86322
G0 F6000 X103.393 Y109.05
G1 F1200 X108.291 Y113.948 E43.09361
G0 F6000 X107.726 Y113.948
G1 F1200 X102.827 Y109.05 E43.32402
G0 F6000 X102.261 Y109.05
G1 F1200 X107.16 Y113.948 E43.55443
G0 F6000 X106.594 Y113.948
G1 F1200 X101.696 Y109.05 E43.78482
G0 F6000 X101.13 Y109.05
G1 F1200 X106.029 Y113.948 E44.01523
G0 F6000 X105.463 Y113.948
G1 F1200 X100.564 Y109.05 E44.24564
G0 F6000 X99.999 Y109.05
G1 F1200 X104.897 Y113.948 E44.47602
G0 F6000 X104.332 Y113.948
G1 F1200 X99.433 Y109.05 E44.70643
G0 F6000 X98.867 Y109.05
G1 F1200 X103.766 Y113.948 E44.93684
G0 F6000 X103.2 Y113.948
G1 F1200 X98.301 Y109.05 E45.16725
G0 F6000 X97.736 Y109.05
G1 F1200 X102.635 Y113.948 E45.39766
G0 F6000 X102.069 Y113.948
G1 F1200 X97.17 Y109.05 E45.62807
G0 F6000 X96.604 Y109.05
G1 F1200 X101.503 Y113.948 E45.85849
G0 F6000 X100.938 Y113.948
G1 F1200 X96.039 Y109.05 E46.0889
G0 F6000 X95.473 Y109.05
G1 F1200 X100.372 Y113.948 E46.31931
G0 F6000 X99.806 Y113.948
G1 F1200 X94.907 Y109.05 E46.54972
G0 F6000 X94.342 Y109.05
G1 F1200 X99.241 Y113.948 E46.78013
G0 F6000 X98.675 Y113.948
G1 F1200 X93.776 Y109.05 E47.01054
G0 F6000 X93.21 Y109.05
G1 F1200 X98.109 Y113.948 E47.24095
G0 F6000 X97.543 Y113.948
G1 F1200 X92.645 Y109.05 E47.47133
G0 F6000 X92.079 Y109.05
G1 F1200 X96.978 Y113.948 E47.70175
G0 F6000 X96.412 Y113.948
G1 F1200 X91.513 Y109.05 E47.93216
G0 F6000 X91.049 Y109.151
G1 F1200 X95.95 Y114.052 E48.16268
G0 F6000 X95.95 Y114.617
G1 F1200 X91.049 Y109.717 E48.39319
G0 F6000 X91.049 Y110.283
G1 F1200 X95.95 Y115.183 E48.62369
G0 F6000 X95.95 Y115.749
G1 F1200 X91.049 Y110.848 E48.85422
G0 F6000 X91.049 Y111.414
G1 F1200 X95.95 Y116.314 E49.08473
G0 F6000 X95.95 Y116.88
G1 F1200 X91.049 Y111.98 E49.31523
G0 F6000 X91.049 Y112.545
G1 F1200 X95.95 Y117.446 E49.54576
G0 F6000 X95.95 Y118.011
G1 F1200 X91.049 Y113.111 E49.77626
G0 F6000 X91.049 Y113.677
G1 F1200 X95.95 Y118.577 E50.00677
G0 F6000 X95.95 Y119.143
G1 F1200 X91.049 Y114.242 E50.23729
G0 F6000 X91.049 Y114.808
G1 F1200 X95.95 Y119.708 E50.4678
G0 F6000 X95.95 Y120.274
G1 F1200 X91.049 Y115.374 E50.6983
G0 F6000 X91.049 Y115.94
G1 F1200 X95.95 Y120.84 E50.92881
G0 F6000 X95.95 Y121.405
G1 F1200 X91.049 Y116.505 E51.15931
G0 F6000 X91.049 Y117.071
G1 F1200 X95.95 Y121.971 E51.38982
G0 F6000 X95.95 Y122.537
G1 F1200 X91.049 Y117.637 E51.62032
G0 F6000 X91.049 Y118.202
G1 F1200 X95.95 Y123.103 E51.85085
G0 F6000 X95.95 Y123.668
G1 F1200 X91.049 Y118.768 E52.08135
G0 F6000 X91.049 Y119.334
G1 F1200 X95.95 Y124.234 E52.31186
G0 F6000 X95.95 Y124.8
G1 F1200 X91.049 Y119.899 E52.54239
G0 F6000 X91.049 Y120.465
G1 F1200 X95.95 Y125.365 E52.77289
G0 F6000 X95.95 Y125.931
G1 F1200 X91.049 Y121.031 E53.0034
G0 F6000 X91.049 Y121.596
G1 F1200 X95.402 Y125.949 E53.20815
G0 F6000 X94.836 Y125.949
G1 F1200 X91.049 Y122.162 E53.38628
G0 F6000 X91.049 Y122.728
G1 F1200 X94.27 Y125.949 E53.53778
G0 F6000 X93.705 Y125.949
G1 F1200 X91.049 Y123.293 E53.66271
G0 F6000 X91.049 Y123.859
G1 F1200 X93.139 Y125.949 E53.76102
G0 F6000 X92.573 Y125.949
G1 F1200 X91.049 Y124.425 E53.8327
G0 F6000 X91.049 Y124.991
G1 F1200 X92.008 Y125.949 E53.87779
G0 F6000 X91.442 Y125.949
G1 F1200 X91.049 Y125.556 E53.89627
G0 F6000 X90.31 Y125.556
G1 F1500 E47.39627
;MESH:NONMESH
G0 F300 X90.31 Y125.556 Z0.4
G0 F6000 X90.682 Y126.318
G0 X96.318 Y126.318
G0 X97.072 Y115.072
G0 X137.928 Y115.072
G0 X138.5 Y126.5
;TIME_ELAPSED:99.028688
;LAYER:1
M140 S60
M106 S85
;TYPE:WALL-INNER
;MESH:Part1.STL
G1 F1500 E53.89627
G1 F1350 X138.5 Y114.5 E54.2954
G1 X96.5 Y114.5 E55.69232
G1 X96.5 Y126.5 E56.09144
G1 X90.5 Y126.5 E56.291
G1 X90.5 Y108.5 E56.88969
G1 X144.5 Y108.5 E58.68573
G1 X144.5 Y126.5 E59.28442
G1 X138.5 Y126.5 E59.48398
G0 F7500 X138.1 Y126.9
G1 F1350 X138.1 Y114.9 E59.8831
G1 X96.9 Y114.9 E61.25342
G1 X96.9 Y126.9 E61.65254
G1 X90.1 Y126.9 E61.87871
G1 X90.1 Y108.1 E62.504
G1 X144.9 Y108.1 E64.32665
G1 X144.9 Y126.9 E64.95194
G1 X138.1 Y126.9 E65.17811
G0 F7500 X137.7 Y127.3
;TYPE:WALL-OUTER
G1 F1350 X137.7 Y115.3 E65.57723
G1 X97.3 Y115.3 E66.92094
G1 X97.3 Y127.3 E67.32006
G1 X89.7 Y127.3 E67.57284
G1 X89.7 Y107.7 E68.22474
G1 X145.3 Y107.7 E70.074
G1 X145.3 Y127.3 E70.7259
G1 X137.7 Y127.3 E70.97868
G0 F7500 X137.97 Y127.03
G0 X138.61 Y126.11
G0 X138.89 Y126.11
;TYPE:SKIN
G1 F1350 X138.89 Y114.11 E71.3778
G1 X96.11 Y114.11 E72.80067
G1 X96.11 Y126.11 E73.19979
G1 X90.89 Y126.11 E73.37341
G1 X90.89 Y108.89 E73.94615
G1 X144.11 Y108.89 E75.71625
G1 X144.11 Y126.11 E76.28899
G1 X138.89 Y126.11 E76.46261
G0 F7500 X138.61 Y126.11
G0 X138.682 Y126.318
G0 X144.318 Y126.318
G0 X144.39 Y125.882
G0 X143.949 Y125.882
G1 F1350 X143.881 Y125.95 E76.46581
G0 F7500 X143.315 Y125.95
G1 F1350 X143.949 Y125.316 E76.49563
G0 F7500 X143.949 Y124.751
G1 F1350 X142.75 Y125.95 E76.55203
G0 F7500 X142.184 Y125.95
G1 F1350 X143.949 Y124.185 E76.63505
G0 F7500 X143.949 Y123.619
G1 F1350 X141.618 Y125.95 E76.74469
G0 F7500 X141.052 Y125.95
G1 F1350 X143.949 Y123.054 E76.88093
G0 F7500 X143.949 Y122.488
G1 F1350 X140.487 Y125.95 E77.04378
G0 F7500 X139.921 Y125.95
G1 F1350 X143.949 Y121.922 E77.23324
G0 F7500 X143.949 Y121.357
G1 F1350 X139.355 Y125.95 E77.4493
G0 F7500 X139.049 Y125.691
G1 F1350 X143.949 Y120.791 E77.67979
G0 F7500 X143.949 Y120.225
G1 F1350 X139.049 Y125.125 E77.91027
G0 F7500 X139.049 Y124.559
G1 F1350 X143.949 Y119.66 E78.14072
G0 F7500 X143.949 Y119.094
G1 F1350 X139.049 Y123.994 E78.3712
G0 F7500 X139.049 Y123.428
G1 F1350 X143.949 Y118.528 E78.60169
G0 F7500 X143.949 Y117.963
G1 F1350 X139.049 Y122.862 E78.83214
G0 F7500 X139.049 Y122.296
G1 F1350 X143.949 Y117.397 E79.0626
G0 F7500 X143.949 Y116.831
G1 F1350 X139.049 Y121.731 E79.29308
G0 F7500 X139.049 Y121.165
G1 F1350 X143.949 Y116.266 E79.52354
G0 F7500 X143.949 Y115.7
G1 F1350 X139.049 Y120.599 E79.754
G0 F7500 X139.049 Y120.034
G1 F1350 X143.949 Y115.134 E79.98448
G0 F7500 X143.949 Y114.568
G1 F1350 X139.049 Y119.468 E80.21496
G0 F7500 X139.049 Y118.902
G1 F1350 X143.949 Y114.003 E80.44542
G0 F7500 X143.949 Y113.437
G1 F1350 X139.049 Y118.337 E80.6759
G0 F7500 X139.049 Y117.771
G1 F1350 X143.949 Y112.871 E80.90638
G0 F7500 X143.949 Y112.306
G1 F1350 X139.049 Y117.205 E81.13684
G0 F7500 X139.049 Y116.64
G1 F1350 X143.949 Y111.74 E81.36732
G0 F7500 X143.949 Y111.174
G1 F1350 X139.049 Y116.074 E81.5978
G0 F7500 X139.049 Y115.508
G1 F1350 X143.949 Y110.609 E81.82825
G0 F7500 X143.949 Y110.043
G1 F1350 X139.049 Y114.943 E82.05874
G0 F7500 X139.049 Y114.377
G1 F1350 X143.949 Y109.477 E82.28922
G0 F7500 X143.812 Y109.049
G1 F1350 X138.911 Y113.95 E82.51974
G0 F7500 X138.345 Y113.95
G1 F1350 X143.246 Y109.049 E82.75027
G0 F7500 X142.68 Y109.049
G1 F1350 X137.779 Y113.95 E82.9808
G0 F7500 X137.214 Y113.95
G1 F1350 X142.115 Y109.049 E83.21133
G0 F7500 X141.549 Y109.049
G1 F1350 X136.648 Y113.95 E83.44186
G0 F7500 X136.082 Y113.95
G1 F1350 X140.983 Y109.049 E83.67238
G0 F7500 X140.417 Y109.049
G1 F1350 X135.517 Y113.95 E83.90289
G0 F7500 X134.951 Y113.95
G1 F1350 X139.852 Y109.049 E84.13342
G0 F7500 X139.286 Y109.049
G1 F1350 X134.385 Y113.95 E84.36395
G0 F7500 X133.819 Y113.95
G1 F1350 X138.72 Y109.049 E84.59447
G0 F7500 X138.155 Y109.049
G1 F1350 X133.254 Y113.95 E84.825
G0 F7500 X132.688 Y113.95
G1 F1350 X137.589 Y109.049 E85.05553
G0 F7500 X137.023 Y109.049
G1 F1350 X132.122 Y113.95 E85.28606
G0 F7500 X131.557 Y113.95
G1 F1350 X136.458 Y109.049 E85.51659
G0 F7500 X135.892 Y109.049
G1 F1350 X130.991 Y113.95 E85.74711
G0 F7500 X130.425 Y113.95
G1 F1350 X135.326 Y109.049 E85.97764
G0 F7500 X134.761 Y109.049
G1 F1350 X129.86 Y113.95 E86.20817
G0 F7500 X129.294 Y113.95
G1 F1350 X134.195 Y109.049 E86.4387
G0 F7500 X133.629 Y109.049
