;FLAVOR:Marlin
;TIME:809
;Filament used: 0.588416m
;Layer height: 0.16
;MINX:90.5
;MINY:90.5
;MINZ:0.2
;MAXX:144.5
;MAXY:144.5
;MAXZ:4
;Generated with Cura_SteamEngine 4.6.1
M140 S60
M105
M190 S60
M104 S200
M105
M109 S200
M82 ;absolute extrusion mode
; Ender 3 Custom Start G-code
G92 E0 ; Reset Extruder
G28 ; Home all axes
G1 Z2.0 F3000 ; Move Z Axis up little to prevent scratching of Heat Bed
G1 X0.1 Y20 Z0.3 F5000.0 ; Move to start position
G1 X0.1 Y200.0 Z0.3 F1500.0 E15 ; Draw the first line
G1 X0.4 Y200.0 Z0.3 F5000.0 ; Move to side a little
G1 X0.4 Y20 Z0.3 F1500.0 E30 ; Draw the second line
G92 E0 ; Reset Extruder
G1 Z2.0 F3000 ; Move Z Axis up little to prevent scratching of Heat Bed
G1 X5 Y20 Z0.3 F5000.0 ; Move over to prevent blob squish
G92 E0
G92 E0
G1 F1500 E-6.5
;LAYER_COUNT:21
;LAYER:0
M107
G0 F6000 X133.637 Y91.311 Z0.2
;TYPE:SKIRT
G1 F1500 E0
G1 F1200 X134.539 Y91.364 E0.03005
G1 X135.432 Y91.496 E0.06008
G1 X136.31 Y91.707 E0.09011
G1 X137.166 Y91.995 E0.12015
G1 X137.993 Y92.357 E0.15018
G1 X138.785 Y92.792 E0.18023
G1 X139.536 Y93.294 E0.21027
G1 X140.239 Y93.861 E0.24031
G1 X140.889 Y94.488 E0.27035
G1 X141.481 Y95.17 E0.30039
G1 X142.011 Y95.901 E0.33042
G1 X142.473 Y96.677 E0.36046
G1 X142.866 Y97.49 E0.39049
G1 X143.184 Y98.335 E0.42052
G1 X143.427 Y99.205 E0.45056
G1 X143.592 Y100.093 E0.4806
G1 X143.687 Y101.223 E0.51832
G1 X143.7 Y101.83 E0.53851
G1 X143.699 Y132.89 E1.57157
G1 X143.69 Y133.617 E1.59576
G1 X143.639 Y134.519 E1.6258
G1 X143.508 Y135.413 E1.65586
G1 X143.299 Y136.291 E1.68588
G1 X143.013 Y137.148 E1.71592
G1 X142.652 Y137.976 E1.74597
G1 X142.22 Y138.768 E1.77597
G1 X141.719 Y139.52 E1.80603
G1 X141.153 Y140.224 E1.83607
G1 X140.528 Y140.875 E1.86609
G1 X139.847 Y141.469 E1.89614
G1 X139.116 Y142 E1.92619
G1 X138.342 Y142.464 E1.95621
G1 X137.529 Y142.858 E1.98626
G1 X136.685 Y143.178 E2.01628
G1 X135.815 Y143.423 E2.04634
G1 X134.928 Y143.589 E2.07635
G1 X133.777 Y143.687 E2.11478
G1 X133.17 Y143.7 E2.13497
G1 X102.075 Y143.699 E3.16919
G1 X101.377 Y143.69 E3.19241
G1 X100.476 Y143.639 E3.22243
G1 X99.582 Y143.507 E3.25248
G1 X98.704 Y143.298 E3.2825
G1 X97.847 Y143.011 E3.31256
G1 X97.02 Y142.65 E3.34257
G1 X96.227 Y142.217 E3.37262
G1 X95.476 Y141.716 E3.40265
G1 X94.772 Y141.15 E3.4327
G1 X94.121 Y140.524 E3.46273
G1 X93.528 Y139.843 E3.49277
G1 X92.998 Y139.112 E3.5228
G1 X92.534 Y138.337 E3.55284
G1 X92.14 Y137.524 E3.58289
G1 X91.82 Y136.68 E3.61291
G1 X91.576 Y135.81 E3.64297
G1 X91.41 Y134.922 E3.67301
G1 X91.313 Y133.767 E3.71156
G1 X91.3 Y133.158 E3.73182
G1 X91.301 Y102.036 E4.76694
G1 X91.31 Y101.371 E4.78906
G1 X91.362 Y100.469 E4.81912
G1 X91.494 Y99.576 E4.84914
G1 X91.704 Y98.698 E4.87917
G1 X91.991 Y97.841 E4.90923
G1 X92.353 Y97.014 E4.93925
G1 X92.786 Y96.222 E4.96927
G1 X93.288 Y95.471 E4.99932
G1 X93.855 Y94.767 E5.02938
G1 X94.481 Y94.117 E5.0594
G1 X95.162 Y93.524 E5.08943
G1 X95.894 Y92.994 E5.11949
G1 X96.669 Y92.531 E5.14952
G1 X97.482 Y92.138 E5.17955
G1 X98.327 Y91.818 E5.2096
G1 X99.196 Y91.575 E5.23961
G1 X100.084 Y91.409 E5.26966
G1 X101.223 Y91.313 E5.30768
G1 X101.83 Y91.3 E5.32787
G1 X132.939 Y91.301 E6.36256
G1 X133.637 Y91.311 E6.38578
G0 F6000 X133.643 Y90.911
G1 F1200 X134.562 Y90.964 E6.4164
G1 X135.473 Y91.097 E6.44702
G1 X136.369 Y91.308 E6.47763
G1 X137.243 Y91.596 E6.50824
G1 X138.09 Y91.959 E6.53889
G1 X138.901 Y92.394 E6.5695
G1 X139.671 Y92.898 E6.60011
G1 X140.395 Y93.467 E6.63074
G1 X141.067 Y94.097 E6.66137
G1 X141.682 Y94.782 E6.69199
G1 X142.235 Y95.518 E6.72261
G1 X142.722 Y96.299 E6.75322
G1 X143.139 Y97.12 E6.78385
G1 X143.484 Y97.974 E6.81448
G1 X143.753 Y98.854 E6.84509
G1 X143.945 Y99.755 E6.87573
G1 X144.058 Y100.668 E6.90633
G1 X144.087 Y101.212 E6.92445
G1 X144.1 Y101.83 E6.94501
G1 X144.099 Y132.895 E7.97823
G1 X144.09 Y133.622 E8.00241
G1 X144.039 Y134.541 E8.03303
G1 X143.908 Y135.453 E8.06367
G1 X143.698 Y136.349 E8.09428
G1 X143.412 Y137.224 E8.1249
G1 X143.051 Y138.071 E8.15552
G1 X142.617 Y138.883 E8.18615
G1 X142.115 Y139.655 E8.21677
G1 X141.547 Y140.38 E8.24741
G1 X140.919 Y141.053 E8.27802
G1 X140.235 Y141.669 E8.30864
G1 X139.5 Y142.223 E8.33925
G1 X138.72 Y142.712 E8.36987
G1 X137.9 Y143.131 E8.4005
G1 X137.047 Y143.477 E8.43111
G1 X136.167 Y143.748 E8.46174
G1 X135.267 Y143.941 E8.49235
G1 X134.353 Y144.056 E8.52299
G1 X133.788 Y144.087 E8.54181
G1 X133.17 Y144.1 E8.56237
G1 X102.07 Y144.099 E9.59676
G1 X101.372 Y144.09 E9.61998
G1 X100.453 Y144.038 E9.65059
G1 X99.542 Y143.907 E9.68121
G1 X98.646 Y143.697 E9.71182
G1 X97.771 Y143.41 E9.74244
G1 X96.924 Y143.048 E9.77308
G1 X96.112 Y142.614 E9.8037
G1 X95.341 Y142.112 E9.8343
G1 X94.616 Y141.544 E9.86494
G1 X93.943 Y140.915 E9.89557
G1 X93.328 Y140.231 E9.92617
G1 X92.774 Y139.496 E9.95678
G1 X92.286 Y138.715 E9.98741
G1 X91.867 Y137.895 E10.01804
G1 X91.521 Y137.042 E10.04865
G1 X91.251 Y136.162 E10.07927
G1 X91.058 Y135.261 E10.10992
G1 X90.944 Y134.348 E10.14052
G1 X90.913 Y133.777 E10.15954
G1 X90.9 Y133.158 E10.18013
G1 X90.901 Y102.031 E11.21542
G1 X90.91 Y101.366 E11.23754
G1 X90.962 Y100.446 E11.26819
G1 X91.094 Y99.535 E11.2988
G1 X91.305 Y98.639 E11.32942
G1 X91.592 Y97.764 E11.36005
G1 X91.955 Y96.918 E11.39067
G1 X92.389 Y96.106 E11.42129
G1 X92.892 Y95.335 E11.45191
G1 X93.461 Y94.611 E11.48254
G1 X94.089 Y93.939 E11.51313
G1 X94.774 Y93.323 E11.54377
G1 X95.51 Y92.77 E11.57439
G1 X96.291 Y92.282 E11.60502
G1 X97.111 Y91.864 E11.63563
G1 X97.965 Y91.519 E11.66626
G1 X98.845 Y91.249 E11.69688
G1 X99.745 Y91.057 E11.72749
G1 X100.659 Y90.943 E11.75812
G1 X101.212 Y90.913 E11.77654
G1 X101.83 Y90.9 E11.7971
G1 X132.945 Y90.901 E12.83199
G1 X133.643 Y90.911 E12.85521
G0 F6000 X133.649 Y90.511
G1 F1200 X134.585 Y90.565 E12.88639
G1 X135.513 Y90.697 E12.91757
G1 X136.427 Y90.909 E12.94877
G1 X137.319 Y91.198 E12.97996
G1 X138.184 Y91.561 E13.01116
G1 X139.014 Y91.997 E13.04234
G1 X139.805 Y92.502 E13.07356
G1 X140.549 Y93.073 E13.10475
G1 X141.242 Y93.705 E13.13595
G1 X141.879 Y94.393 E13.16713
G1 X142.454 Y95.134 E13.19833
G1 X142.965 Y95.92 E13.22951
G1 X143.407 Y96.748 E13.26073
G1 X143.776 Y97.61 E13.29191
G1 X144.071 Y98.5 E13.3231
G1 X144.289 Y99.412 E13.35429
G1 X144.429 Y100.34 E13.3855
G1 X144.487 Y101.201 E13.4142
G1 X144.5 Y101.83 E13.43513
G1 X144.499 Y132.9 E14.46852
G1 X144.49 Y133.627 E14.4927
G1 X144.439 Y134.564 E14.52391
G1 X144.307 Y135.492 E14.55509
G1 X144.098 Y136.406 E14.58627
G1 X143.811 Y137.299 E14.61747
G1 X143.449 Y138.165 E14.64869
G1 X143.015 Y138.996 E14.67987
G1 X142.511 Y139.787 E14.71107
G1 X141.942 Y140.532 E14.74225
G1 X141.311 Y141.227 E14.77347
G1 X140.624 Y141.865 E14.80465
G1 X139.885 Y142.442 E14.83583
G1 X139.099 Y142.954 E14.86703
G1 X138.273 Y143.397 E14.89821
G1 X137.411 Y143.769 E14.92943
G1 X136.522 Y144.065 E14.9606
G1 X135.61 Y144.285 E14.9918
G1 X134.683 Y144.426 E15.02299
G1 X133.799 Y144.487 E15.05246
G1 X133.17 Y144.5 E15.07339
G1 X102.065 Y144.499 E16.10794
G1 X101.367 Y144.49 E16.13116
G1 X100.431 Y144.438 E16.16234
G1 X99.502 Y144.306 E16.19355
G1 X98.588 Y144.096 E16.22474
G1 X97.695 Y143.809 E16.25594
G1 X96.83 Y143.446 E16.28714
G1 X95.999 Y143.012 E16.31832
G1 X95.208 Y142.508 E16.34952
G1 X94.463 Y141.938 E16.38071
G1 X93.769 Y141.307 E16.41191
G1 X93.132 Y140.62 E16.44307
G1 X92.555 Y139.88 E16.47428
G1 X92.043 Y139.094 E16.50548
G1 X91.6 Y138.267 E16.53669
G1 X91.229 Y137.406 E16.56787
G1 X90.933 Y136.516 E16.59906
G1 X90.714 Y135.604 E16.63026
G1 X90.573 Y134.677 E16.66145
G1 X90.513 Y133.788 E16.69108
G1 X90.5 Y133.158 E16.71204
G1 X90.501 Y102.025 E17.74753
G1 X90.51 Y101.36 E17.76965
G1 X90.563 Y100.424 E17.80083
G1 X90.695 Y99.495 E17.83204
G1 X90.906 Y98.581 E17.86324
G1 X91.194 Y97.689 E17.89441
G1 X91.557 Y96.824 E17.92562
G1 X91.992 Y95.993 E17.95681
G1 X92.496 Y95.203 E17.98798
G1 X93.066 Y94.458 E18.01918
G1 X93.698 Y93.764 E18.0504
G1 X94.386 Y93.127 E18.08158
G1 X95.126 Y92.551 E18.11277
G1 X95.912 Y92.039 E18.14397
G1 X96.739 Y91.597 E18.17516
G1 X97.601 Y91.227 E18.20636
G1 X98.491 Y90.931 E18.23756
G1 X99.403 Y90.713 E18.26874
G1 X100.33 Y90.572 E18.29993
G1 X101.201 Y90.513 E18.32897
G1 X101.83 Y90.5 E18.34989
G1 X132.951 Y90.501 E19.38498
G1 X133.649 Y90.511 E19.4082
G1 F1500 E12.9082
;MESH:Part2.STL
G0 F6000 X122.523 Y105.165
G0 X122.523 Y103.33
G0 X104.072 Y104.072
G0 X103.5 Y131.5
;TYPE:WALL-INNER
G1 F1500 E19.4082
G1 F1200 X131.5 Y131.5 E20.33948
G1 X131.5 Y103.5 E21.27077
G1 X103.5 Y103.5 E22.20205
G1 X103.5 Y131.5 E23.13333
G0 F6000 X103.9 Y131.1
G1 F1200 X131.1 Y131.1 E24.03801
G1 X131.1 Y103.9 E24.94269
G1 X103.9 Y103.9 E25.84736
G1 X103.9 Y131.1 E26.75204
G0 F6000 X104.3 Y130.7
;TYPE:WALL-OUTER
G1 F1200 X130.7 Y130.7 E27.6301
G1 X130.7 Y104.3 E28.50817
G1 X104.3 Y104.3 E29.38624
G1 X104.3 Y130.7 E30.26431
G1 F1500 E23.76431
G0 F6000 X104 Y130.7
G0 X103.304 Y131.696
G0 X103.304 Y132.29
G0 X102.5 Y132.5
;TYPE:WALL-INNER
G1 F1500 E30.26431
G1 F1200 X102.5 Y102.5 E31.26211
G1 X132.5 Y102.5 E32.25991
G1 X132.5 Y132.5 E33.25772
G1 X102.5 Y132.5 E34.25552
G0 F6000 X102.1 Y132.9
G1 F1200 X102.1 Y102.1 E35.27994
G1 X132.9 Y102.1 E36.30435
G1 X132.9 Y132.9 E37.32876
G1 X102.1 Y132.9 E38.35317
G0 F6000 X101.7 Y133.3
;TYPE:WALL-OUTER
G1 F1200 X101.7 Y101.7 E39.40419
G1 X133.3 Y101.7 E40.45521
G1 X133.3 Y133.3 E41.50623
G1 X101.7 Y133.3 E42.55725
G0 F6000 X101.97 Y133.03
G0 X102.61 Y132.11
G0 X102.89 Y132.11
;TYPE:SKIN
G1 F1200 X102.89 Y102.89 E43.52911
G1 X132.11 Y102.89 E44.50098
G1 X132.11 Y132.11 E45.47284
G1 X102.89 Y132.11 E46.4447
G0 F6000 X103.11 Y131.89
G1 F1200 X131.89 Y131.89 E47.40192
G1 X131.89 Y103.11 E48.35915
G1 X103.11 Y103.11 E49.31638
G1 X103.11 Y131.89 E50.2736
G0 F6000 X103.572 Y131.31
;MESH:NONMESH
G0 F300 X103.572 Y131.31 Z0.4
G0 F6000 X103.5 Y131.5
;TIME_ELAPSED:83.763835
;LAYER:1
M140 S60
M106 S85
;TYPE:WALL-INNER
;MESH:Part2.STL
G1 F1350 X131.5 Y131.5 E51.20489
G1 X131.5 Y103.5 E52.13617
G1 X103.5 Y103.5 E53.06746
G1 X103.5 Y131.5 E53.99874
G0 F7500 X103.9 Y131.1
G1 F1350 X131.1 Y131.1 E54.90341
G1 X131.1 Y103.9 E55.80809
G1 X103.9 Y103.9 E56.71277
G1 X103.9 Y131.1 E57.61744
G0 F7500 X104.3 Y130.7
;TYPE:WALL-OUTER
G1 F1350 X130.7 Y130.7 E58.49551
G1 X130.7 Y104.3 E59.37358
G1 X104.3 Y104.3 E60.25164
G1 X104.3 Y130.7 E61.12971
G1 F1500 E54.62971
G0 F7500 X104 Y130.7
G0 X103.304 Y131.696
G0 X103.304 Y132.29
G0 X102.5 Y132.5
;TYPE:WALL-INNER
G1 F1500 E61.12971
G1 F1350 X102.5 Y102.5 E62.12752
G1 X132.5 Y102.5 E63.12532
G1 X132.5 Y132.5 E64.12312
G1 X102.5 Y132.5 E65.12093
G0 F7500 X102.1 Y132.9
G1 F1350 X102.1 Y102.1 E66.14534
G1 X132.9 Y102.1 E67.16975
G1 X132.9 Y132.9 E68.19416
G1 X102.1 Y132.9 E69.21858
G0 F7500 X101.7 Y133.3
;TYPE:WALL-OUTER
G1 F1350 X101.7 Y101.7 E70.2696
G1 X133.3 Y101.7 E71.32062
G1 X133.3 Y133.3 E72.37164
G1 X101.7 Y133.3 E73.42266
G0 F7500 X101.97 Y133.03
G0 X102.61 Y132.11
G0 X102.89 Y132.11
;TYPE:SKIN
G1 F1350 X102.89 Y102.89 E74.39452
G1 X132.11 Y102.89 E75.36638
G1 X132.11 Y132.11 E76.33824
G1 X102.89 Y132.11 E77.3101
G0 F7500 X103.11 Y131.89
G1 F1350 X131.89 Y131.89 E78.26733
G1 X131.89 Y103.11 E79.22456
G1 X103.11 Y103.11 E80.18178
G1 X103.11 Y131.89 E81.13901
G0 F7500 X103.572 Y131.31
;MESH:NONMESH
G0 F300 X103.572 Y131.31 Z0.6
G0 F7500 X103.5 Y131.5
;TIME_ELAPSED:126.904986
;LAYER:2
M106 S170
;TYPE:WALL-INNER
;MESH:Part2.STL
G1 F1500 X131.5 Y131.5 E82.07029
G1 X131.5 Y103.5 E83.00158
G1 X103.5 Y103.5 E83.93286
G1 X103.5 Y131.5 E84.86414
G0 F9000 X103.9 Y131.1
G1 F1500 X131.1 Y131.1 E85.76882
G1 X131.1 Y103.9 E86.6735
G1 X103.9 Y103.9 E87.57817
G1 X103.9 Y131.1 E88.48285
G0 F9000 X104.3 Y130.7
;TYPE:WALL-OUTER
G1 F1500 X130.7 Y130.7 E89.36091
G1 X130.7 Y104.3 E90.23898
G1 X104.3 Y104.3 E91.11705
G1 X104.3 Y130.7 E91.99512
G1 F1500 E85.49512
G0 F9000 X104 Y130.7
G0 X103.304 Y131.696
G0 X103.304 Y132.29
G0 X102.5 Y132.5
;TYPE:WALL-INNER
G1 F1500 E91.99512
G1 X102.5 Y102.5 E92.99292
G1 X132.5 Y102.5 E93.99073
G1 X132.5 Y132.5 E94.98853
G1 X102.5 Y132.5 E95.98633
G0 F9000 X102.1 Y132.9
G1 F1500 X102.1 Y102.1 E97.01075
G1 X132.9 Y102.1 E98.03516
G1 X132.9 Y132.9 E99.05957
G1 X102.1 Y132.9 E100.08398
G0 F9000 X101.7 Y133.3
;TYPE:WALL-OUTER
G1 F1500 X101.7 Y101.7 E101.135
G1 X133.3 Y101.7 E102.18602
G1 X133.3 Y133.3 E103.23704
G1 X101.7 Y133.3 E104.28806
G0 F9000 X101.97 Y133.03
G0 X102.61 Y132.11
G0 X102.89 Y132.11
;TYPE:SKIN
G1 F1500 X102.89 Y102.89 E105.25992
G1 X132.11 Y102.89 E106.23179
G1 X132.11 Y132.11 E107.20365
G1 X102.89 Y132.11 E108.17551
G0 F9000 X103.11 Y131.89
G1 F1500 X131.89 Y131.89 E109.13273
G1 X131.89 Y103.11 E110.08996
G1 X103.11 Y103.11 E111.04719
G1 X103.11 Y131.89 E112.00441
G0 F9000 X103.572 Y131.31
;MESH:NONMESH
G0 F300 X103.572 Y131.31 Z0.8
G0 F9000 X103.5 Y131.5
;TIME_ELAPSED:166.070517
;LAYER:3
M106 S255
;TYPE:WALL-INNER
;MESH:Part2.STL
G1 F1500 X131.5 Y131.5 E112.9357
G1 X131.5 Y103.5 E113.86698
G1 X103.5 Y103.5 E114.79827
G1 X103.5 Y131.5 E115.72955
G0 F9000 X103.9 Y131.1
G1 F1500 X131.1 Y131.1 E116.63423
G1 X131.1 Y103.9 E117.5389
G1 X103.9 Y103.9 E118.44358
G1 X103.9 Y131.1 E119.34825
G0 F9000 X104.3 Y130.7
;TYPE:WALL-OUTER
G1 F1500 X130.7 Y130.7 E120.22632
G1 X130.7 Y104.3 E121.10439
G1 X104.3 Y104.3 E121.98246
G1 X104.3 Y130.7 E122.86052
G1 F1500 E116.36052
G0 F9000 X104 Y130.7
G0 X103.304 Y131.696
G0 X103.304 Y132.29
G0 X102.5 Y132.5
;TYPE:WALL-INNER
G1 F1500 E122.86052
G1 X102.5 Y102.5 E123.85833
G1 X132.5 Y102.5 E124.85613
G1 X132.5 Y132.5 E125.85394
G1 X102.5 Y132.5 E126.85174
G0 F9000 X102.1 Y132.9
G1 F1500 X102.1 Y102.1 E127.87615
G1 X132.9 Y102.1 E128.90056
G1 X132.9 Y132.9 E129.92498
G1 X102.1 Y132.9 E130.94939
G0 F9000 X101.7 Y133.3
;TYPE:WALL-OUTER
G1 F1500 X101.7 Y101.7 E132.00041
G1 X133.3 Y101.7 E133.05143
G1 X133.3 Y133.3 E134.10245
G1 X101.7 Y133.3 E135.15347
G0 F9000 X101.97 Y133.03
G0 X102.61 Y132.11
G0 X102.89 Y132.11
;TYPE:SKIN
G1 F1500 X102.89 Y102.89 E136.12533
G1 X132.11 Y102.89 E137.09719
G1 X132.11 Y132.11 E138.06905
G1 X102.89 Y132.11 E139.04091
G0 F9000 X103.11 Y131.89
G1 F1500 X131.89 Y131.89 E139.99814
G1 X131.89 Y103.11 E140.95537
G1 X103.11 Y103.11 E141.91259
G1 X103.11 Y131.89 E142.86982
G0 F9000 X103.572 Y131.31
;MESH:NONMESH
G0 F300 X103.572 Y131.31 Z1
G0 F9000 X103.5 Y131.5
;TIME_ELAPSED:205.236048
;LAYER:4
;TYPE:WALL-INNER
;MESH:Part2.STL
G1 F1500 X131.5 Y131.5 E143.8011
G1 X131.5 Y103.5 E144.73239
G1 X103.5 Y103.5 E145.66367
G1 X103.5 Y131.5 E146.59496
G0 F9000 X103.9 Y131.1
G1 F1500 X131.1 Y131.1 E147.49963
G1 X131.1 Y103.9 E148.40431
G1 X103.9 Y103.9 E149.30898
G1 X103.9 Y131.1 E150.21366
G0 F9000 X104.3 Y130.7
;TYPE:WALL-OUTER
G1 F1500 X130.7 Y130.7 E151.09173
G1 X130.7 Y104.3 E151.96979
G1 X104.3 Y104.3 E152.84786
G1 X104.3 Y130.7 E153.72593
G1 F1500 E147.22593
G0 F9000 X104 Y130.7
G0 X103.304 Y131.696
G0 X103.304 Y132.29
G0 X102.5 Y132.5
;TYPE:WALL-INNER
G1 F1500 E153.72593
G1 X102.5 Y102.5 E154.72373
G1 X132.5 Y102.5 E155.72154
G1 X132.5 Y132.5 E156.71934
G1 X102.5 Y132.5 E157.71714
G0 F9000 X102.1 Y132.9
G1 F1500 X102.1 Y102.1 E158.74156
G1 X132.9 Y102.1 E159.76597
G1 X132.9 Y132.9 E160.79038
G1 X102.1 Y132.9 E161.81479
G0 F9000 X101.7 Y133.3
;TYPE:WALL-OUTER
G1 F1500 X101.7 Y101.7 E162.86581
G1 X133.3 Y101.7 E163.91683
G1 X133.3 Y133.3 E164.96785
G1 X101.7 Y133.3 E166.01887
G0 F9000 X101.97 Y133.03
G0 X102.61 Y132.11
G0 X102.89 Y132.11
;TYPE:SKIN
G1 F1500 X102.89 Y102.89 E166.99074
G1 X132.11 Y102.89 E167.9626
G1 X132.11 Y132.11 E168.93446
G1 X102.89 Y132.11 E169.90632
G0 F9000 X103.11 Y131.89
G1 F1500 X131.89 Y131.89 E170.86355
