;FLAVOR:Marlin
;TIME:2474
;Filament used: 1.78345m
;Layer height: 0.16
;MINX:94.5
;MINY:94.5
;MINZ:0.2
;MAXX:140.5
;MAXY:140.5
;MAXZ:25
;Generated with Cura_SteamEngine 4.6.1
M140 S60
M105
M190 S60
M104 S200
M105
M109 S200
M82 ;absolute extrusion mode
; Ender 3 Custom Start G-code
G92 E0 ; Reset Extruder
G28 ; Home all axes
G1 Z2.0 F3000 ; Move Z Axis up little to prevent scratching of Heat Bed
G1 X0.1 Y20 Z0.3 F5000.0 ; Move to start position
G1 X0.1 Y200.0 Z0.3 F1500.0 E15 ; Draw the first line
G1 X0.4 Y200.0 Z0.3 F5000.0 ; Move to side a little
G1 X0.4 Y20 Z0.3 F1500.0 E30 ; Draw the second line
G92 E0 ; Reset Extruder
G1 Z2.0 F3000 ; Move Z Axis up little to prevent scratching of Heat Bed
G1 X5 Y20 Z0.3 F5000.0 ; Move over to prevent blob squish
G92 E0
G92 E0
G1 F1500 E-6.5
;LAYER_COUNT:126
;LAYER:0
M107
G0 F6000 X121.639 Y95.311 Z0.2
;TYPE:SKIRT
G1 F1500 E0
G1 F1200 X122.541 Y95.364 E0.03005
G1 X123.434 Y95.496 E0.06008
G1 X124.313 Y95.707 E0.09014
G1 X125.169 Y95.995 E0.12018
G1 X125.996 Y96.357 E0.15021
G1 X126.788 Y96.791 E0.18025
G1 X127.538 Y97.294 E0.21028
G1 X128.241 Y97.861 E0.24032
G1 X129.047 Y98.654 E0.27793
G1 X129.52 Y99.176 E0.30136
G1 X131.259 Y101.04 E0.38614
G1 X133.055 Y102.861 E0.47121
G1 X134.901 Y104.63 E0.55625
G1 X135.844 Y105.484 E0.59857
G1 X136.442 Y106.041 E0.62575
G1 X137.075 Y106.685 E0.65578
G1 X137.649 Y107.383 E0.68584
G1 X138.158 Y108.129 E0.71588
G1 X138.6 Y108.916 E0.7459
G1 X138.97 Y109.74 E0.77594
G1 X139.266 Y110.593 E0.80597
G1 X139.485 Y111.47 E0.83604
G1 X139.626 Y112.362 E0.86607
G1 X139.685 Y113.191 E0.89371
G1 X139.7 Y113.83 E0.91497
G1 X139.699 Y120.916 E1.15065
G1 X139.689 Y121.633 E1.1745
G1 X139.636 Y122.535 E1.20456
G1 X139.504 Y123.428 E1.23458
G1 X139.294 Y124.306 E1.26461
G1 X139.006 Y125.163 E1.29468
G1 X138.644 Y125.99 E1.3247
G1 X138.21 Y126.782 E1.35474
G1 X137.708 Y127.533 E1.38479
G1 X137.142 Y128.236 E1.4148
G1 X136.369 Y129.022 E1.45147
G1 X135.88 Y129.469 E1.47351
G1 X133.96 Y131.259 E1.56081
G1 X132.138 Y133.056 E1.64593
G1 X130.37 Y134.9 E1.7309
G1 X129.515 Y135.845 E1.77328
G1 X128.957 Y136.444 E1.80051
G1 X128.313 Y137.076 E1.83052
G1 X127.615 Y137.65 E1.86058
G1 X126.87 Y138.159 E1.89059
G1 X126.082 Y138.601 E1.92064
G1 X125.258 Y138.971 E1.95068
G1 X124.405 Y139.267 E1.98071
G1 X123.529 Y139.486 E2.01074
G1 X122.637 Y139.627 E2.04078
G1 X121.777 Y139.687 E2.06945
G1 X121.17 Y139.7 E2.08965
G1 X114.062 Y139.699 E2.32606
G1 X113.361 Y139.689 E2.34938
G1 X112.459 Y139.636 E2.37943
G1 X111.566 Y139.504 E2.40945
G1 X110.687 Y139.293 E2.43952
G1 X109.831 Y139.005 E2.46956
G1 X109.004 Y138.643 E2.49959
G1 X108.212 Y138.209 E2.52962
G1 X107.462 Y137.706 E2.55966
G1 X106.759 Y137.139 E2.5897
G1 X105.953 Y136.346 E2.62731
G1 X105.471 Y135.815 E2.65116
G1 X103.741 Y133.96 E2.73552
G1 X101.944 Y132.138 E2.82064
G1 X100.1 Y130.37 E2.90561
G1 X99.155 Y129.515 E2.94799
G1 X98.556 Y128.957 E2.97522
G1 X97.924 Y128.313 E3.00523
G1 X97.35 Y127.615 E3.03529
G1 X96.841 Y126.87 E3.0653
G1 X96.399 Y126.082 E3.09535
G1 X96.029 Y125.258 E3.12539
G1 X95.733 Y124.405 E3.15542
G1 X95.514 Y123.529 E3.18545
G1 X95.373 Y122.637 E3.21549
G1 X95.313 Y121.777 E3.24416
G1 X95.3 Y121.17 E3.26436
G1 X95.301 Y114.061 E3.5008
G1 X95.311 Y113.363 E3.52402
G1 X95.364 Y112.461 E3.55407
G1 X95.496 Y111.568 E3.5841
G1 X95.707 Y110.69 E3.61413
G1 X95.995 Y109.834 E3.64417
G1 X96.357 Y109.007 E3.6742
G1 X96.792 Y108.215 E3.70425
G1 X97.294 Y107.464 E3.73429
G1 X97.861 Y106.761 E3.76433
G1 X98.631 Y105.978 E3.80086
G1 X99.12 Y105.531 E3.82289
G1 X101.04 Y103.741 E3.9102
G1 X102.862 Y101.944 E3.99532
G1 X104.621 Y100.109 E4.07986
G1 X105.501 Y99.139 E4.12342
G1 X106.041 Y98.559 E4.14978
G1 X106.685 Y97.925 E4.17984
G1 X107.382 Y97.352 E4.20985
G1 X108.128 Y96.842 E4.2399
G1 X108.915 Y96.4 E4.26993
G1 X109.739 Y96.03 E4.29997
G1 X110.592 Y95.734 E4.33
G1 X111.468 Y95.515 E4.36003
G1 X112.36 Y95.374 E4.39007
G1 X113.223 Y95.313 E4.41884
G1 X113.83 Y95.3 E4.43904
G1 X120.938 Y95.301 E4.67545
G1 X121.639 Y95.311 E4.69877
G0 F6000 X121.645 Y94.911
G1 F1200 X122.564 Y94.964 E4.72938
G1 X123.475 Y95.097 E4.76
G1 X124.371 Y95.308 E4.79062
G1 X125.246 Y95.596 E4.82126
G1 X126.092 Y95.959 E4.85188
G1 X126.903 Y96.394 E4.88249
G1 X127.674 Y96.898 E4.91312
G1 X128.398 Y97.467 E4.94375
G1 X129.343 Y98.386 E4.98759
G1 X129.789 Y98.878 E5.00968
G1 X131.536 Y100.752 E5.09489
G1 X133.351 Y102.592 E5.18086
G1 X135.146 Y104.312 E5.26354
G1 X136.117 Y105.191 E5.3071
G1 X136.715 Y105.748 E5.33429
G1 X137.361 Y106.405 E5.36493
G1 X137.947 Y107.114 E5.39552
G1 X138.47 Y107.872 E5.42615
G1 X138.924 Y108.673 E5.45678
G1 X139.308 Y109.51 E5.48741
G1 X139.618 Y110.377 E5.51803
G1 X139.851 Y111.267 E5.54863
G1 X140.006 Y112.175 E5.57927
G1 X140.085 Y113.179 E5.61276
G1 X140.095 Y113.504 E5.62358
G1 X140.1 Y113.83 E5.63442
G1 X140.099 Y120.922 E5.8703
G1 X140.089 Y121.639 E5.89415
G1 X140.036 Y122.558 E5.92477
G1 X139.904 Y123.469 E5.95539
G1 X139.693 Y124.365 E5.986
G1 X139.405 Y125.24 E6.01664
G1 X139.042 Y126.086 E6.04726
G1 X138.608 Y126.897 E6.07785
G1 X138.104 Y127.668 E6.10849
G1 X137.536 Y128.392 E6.1391
G1 X136.639 Y129.318 E6.18198
G1 X136.108 Y129.803 E6.20589
G1 X134.248 Y131.536 E6.29045
G1 X132.407 Y133.352 E6.37646
G1 X130.688 Y135.146 E6.4591
G1 X129.808 Y136.117 E6.50268
G1 X129.25 Y136.716 E6.52991
G1 X128.594 Y137.362 E6.56053
G1 X127.884 Y137.948 E6.59115
G1 X127.126 Y138.471 E6.62178
G1 X126.326 Y138.926 E6.65239
G1 X125.489 Y139.309 E6.68301
G1 X124.622 Y139.619 E6.71363
G1 X123.731 Y139.852 E6.74426
G1 X122.824 Y140.007 E6.77487
G1 X121.788 Y140.087 E6.80943
G1 X121.17 Y140.1 E6.82999
G1 X114.056 Y140.099 E7.0666
G1 X113.355 Y140.089 E7.08992
G1 X112.436 Y140.036 E7.12053
G1 X111.525 Y139.903 E7.15116
G1 X110.629 Y139.692 E7.18177
G1 X109.754 Y139.404 E7.21241
G1 X108.908 Y139.041 E7.24303
G1 X108.097 Y138.606 E7.27364
G1 X107.326 Y138.102 E7.30427
G1 X106.602 Y137.533 E7.3349
G1 X105.657 Y136.614 E7.37874
G1 X105.206 Y136.117 E7.40107
G1 X103.464 Y134.248 E7.48604
G1 X101.648 Y132.407 E7.57205
G1 X99.854 Y130.688 E7.65469
G1 X98.883 Y129.808 E7.69828
G1 X98.284 Y129.25 E7.72551
G1 X97.638 Y128.594 E7.75613
G1 X97.052 Y127.884 E7.78675
G1 X96.529 Y127.126 E7.81738
G1 X96.074 Y126.326 E7.84799
G1 X95.691 Y125.489 E7.8786
G1 X95.381 Y124.622 E7.90923
G1 X95.148 Y123.731 E7.93986
G1 X94.993 Y122.824 E7.97046
G1 X94.913 Y121.788 E8.00502
G1 X94.9 Y121.17 E8.02558
G1 X94.901 Y114.055 E8.26223
G1 X94.911 Y113.357 E8.28544
G1 X94.964 Y112.438 E8.31606
G1 X95.097 Y111.527 E8.34668
G1 X95.308 Y110.631 E8.3773
G1 X95.596 Y109.757 E8.40791
G1 X95.959 Y108.91 E8.43856
G1 X96.394 Y108.099 E8.46916
G1 X96.898 Y107.329 E8.49977
G1 X97.467 Y106.605 E8.5304
G1 X98.361 Y105.682 E8.57314
G1 X98.892 Y105.197 E8.59706
G1 X100.752 Y103.464 E8.68161
G1 X102.593 Y101.648 E8.76762
G1 X104.318 Y99.847 E8.85057
G1 X105.208 Y98.866 E8.89462
G1 X105.748 Y98.286 E8.92098
G1 X106.404 Y97.64 E8.9516
G1 X107.114 Y97.053 E8.98224
G1 X107.871 Y96.531 E9.01283
G1 X108.672 Y96.076 E9.04347
G1 X109.508 Y95.692 E9.07406
G1 X110.375 Y95.382 E9.10469
G1 X111.266 Y95.148 E9.13533
G1 X112.173 Y94.993 E9.16593
G1 X113.212 Y94.913 E9.20059
G1 X113.83 Y94.9 E9.22115
G1 X120.944 Y94.901 E9.45776
G1 X121.645 Y94.911 E9.48108
G0 F6000 X121.651 Y94.511
G1 F1200 X122.587 Y94.564 E9.51226
G1 X123.516 Y94.697 E9.54348
G1 X124.429 Y94.909 E9.57465
G1 X125.322 Y95.197 E9.60586
G1 X126.186 Y95.561 E9.63704
G1 X127.017 Y95.997 E9.66825
G1 X127.807 Y96.502 E9.69944
G1 X128.551 Y97.072 E9.73061
G1 X129.244 Y97.704 E9.76181
G1 X129.639 Y98.117 E9.78081
G1 X130.059 Y98.579 E9.80158
G1 X131.849 Y100.499 E9.88889
G1 X133.612 Y102.287 E9.9724
G1 X135.425 Y104.025 E10.05594
G1 X136.389 Y104.899 E10.09922
G1 X136.987 Y105.456 E10.1264
G1 X137.646 Y106.124 E10.15761
G1 X138.245 Y106.845 E10.18878
G1 X138.78 Y107.615 E10.21997
G1 X139.248 Y108.428 E10.25117
G1 X139.645 Y109.278 E10.28237
G1 X139.968 Y110.158 E10.31355
G1 X140.215 Y111.063 E10.34475
G1 X140.385 Y111.985 E10.37593
G1 X140.485 Y113.167 E10.41539
G1 X140.495 Y113.492 E10.4262
G1 X140.5 Y113.83 E10.43745
G1 X140.499 Y120.927 E10.67349
G1 X140.489 Y121.644 E10.69734
G1 X140.436 Y122.581 E10.72856
G1 X140.303 Y123.509 E10.75974
G1 X140.092 Y124.423 E10.79094
G1 X139.804 Y125.315 E10.82211
G1 X139.44 Y126.18 E10.85333
G1 X139.005 Y127.011 E10.88452
G1 X138.5 Y127.801 E10.91571
G1 X137.93 Y128.546 E10.94691
G1 X137.298 Y129.239 E10.9781
G1 X136.908 Y129.613 E10.99608
G1 X136.46 Y130.022 E11.01625
G1 X134.501 Y131.849 E11.10535
G1 X132.712 Y133.613 E11.18891
G1 X130.975 Y135.425 E11.2724
G1 X130.101 Y136.39 E11.3157
G1 X129.543 Y136.989 E11.34293
G1 X128.875 Y137.647 E11.37411
G1 X128.153 Y138.246 E11.40532
G1 X127.383 Y138.782 E11.43652
G1 X126.57 Y139.25 E11.46772
G1 X125.721 Y139.647 E11.49889
G1 X124.84 Y139.97 E11.5301
G1 X123.935 Y140.217 E11.5613
G1 X123.013 Y140.386 E11.59248
G1 X121.799 Y140.487 E11.633
G1 X121.17 Y140.5 E11.65392
G1 X114.05 Y140.499 E11.89074
G1 X113.349 Y140.489 E11.91405
G1 X112.413 Y140.436 E11.94524
G1 X111.484 Y140.303 E11.97645
G1 X110.571 Y140.091 E12.00762
G1 X109.678 Y139.803 E12.03883
G1 X108.814 Y139.439 E12.07001
G1 X107.983 Y139.003 E12.10123
G1 X107.193 Y138.498 E12.13241
G1 X106.449 Y137.928 E12.16358
G1 X105.756 Y137.296 E12.19478
G1 X105.361 Y136.883 E12.21379
G1 X104.913 Y136.39 E12.23594
G1 X103.151 Y134.501 E12.32186
G1 X101.387 Y132.712 E12.40542
G1 X99.575 Y130.975 E12.48891
G1 X98.61 Y130.101 E12.53221
G1 X98.011 Y129.543 E12.55944
G1 X97.353 Y128.875 E12.59063
G1 X96.754 Y128.153 E12.62183
G1 X96.218 Y127.383 E12.65303
G1 X95.75 Y126.57 E12.68423
G1 X95.353 Y125.721 E12.71541
G1 X95.03 Y124.84 E12.74662
G1 X94.783 Y123.935 E12.77782
G1 X94.614 Y123.013 E12.809
G1 X94.513 Y121.799 E12.84951
G1 X94.5 Y121.17 E12.87044
G1 X94.501 Y114.049 E13.10728
G1 X94.511 Y113.351 E13.1305
G1 X94.565 Y112.415 E13.16168
G1 X94.697 Y111.487 E13.19286
G1 X94.909 Y110.573 E13.22407
G1 X95.198 Y109.681 E13.25525
G1 X95.561 Y108.816 E13.28645
G1 X95.997 Y107.986 E13.31764
G1 X96.502 Y107.195 E13.34885
G1 X97.073 Y106.451 E13.38004
G1 X97.705 Y105.758 E13.41124
G1 X98.092 Y105.387 E13.42907
G1 X98.55 Y104.969 E13.44969
G1 X100.499 Y103.151 E13.53834
G1 X102.288 Y101.387 E13.6219
G1 X104.034 Y99.566 E13.70581
G1 X104.915 Y98.593 E13.74947
G1 X105.455 Y98.013 E13.77583
G1 X106.123 Y97.355 E13.80701
G1 X106.844 Y96.756 E13.83819
G1 X107.614 Y96.22 E13.86939
G1 X108.427 Y95.752 E13.9006
G1 X109.277 Y95.355 E13.9318
G1 X110.157 Y95.031 E13.96299
G1 X111.062 Y94.784 E13.99419
G1 X111.984 Y94.615 E14.02537
G1 X113.201 Y94.513 E14.06599
G1 X113.83 Y94.5 E14.08691
G1 X120.95 Y94.501 E14.32372
G1 X121.651 Y94.511 E14.34704
G1 F1500 E7.84704
;MESH:Part3.STL
G0 F6000 X121.086 Y104.835
G0 X121.086 Y105.914
G0 X120.858 Y114.669
G0 X128.318 Y114.682
G0 X128.318 Y120.318
G0 X120.711 Y120.33
G0 X120.5 Y128.5
;TYPE:WALL-INNER
G1 F1500 E14.34704
G1 F1200 X114.5 Y128.5 E14.5466
G1 X114.5 Y120.5 E14.81268
G1 X106.5 Y120.5 E15.07876
G1 X106.5 Y114.5 E15.27832
G1 X114.5 Y114.5 E15.5444
G1 X114.5 Y106.5 E15.81049
G1 X120.5 Y106.5 E16.01005
G1 X120.5 Y114.5 E16.27613
G1 X128.5 Y114.5 E16.54221
G1 X128.5 Y120.5 E16.74177
G1 X120.5 Y120.5 E17.00785
G1 X120.5 Y128.5 E17.27393
G0 F6000 X120.9 Y128.9
G1 F1200 X114.1 Y128.9 E17.5001
G1 X114.1 Y120.9 E17.76618
G1 X106.1 Y120.9 E18.03226
G1 X106.1 Y114.1 E18.25843
G1 X114.1 Y114.1 E18.52451
G1 X114.1 Y106.1 E18.79059
G1 X120.9 Y106.1 E19.01676
G1 X120.9 Y114.1 E19.28284
G1 X128.9 Y114.1 E19.54893
G1 X128.9 Y120.9 E19.77509
G1 X120.9 Y120.9 E20.04118
G1 X120.9 Y128.9 E20.30726
G0 F6000 X121.3 Y129.3
;TYPE:WALL-OUTER
G1 F1200 X113.7 Y129.3 E20.56003
G1 X113.7 Y121.3 E20.82611
G1 X105.7 Y121.3 E21.0922
G1 X105.7 Y113.7 E21.34497
G1 X113.7 Y113.7 E21.61105
G1 X113.7 Y105.7 E21.87713
G1 X121.3 Y105.7 E22.12991
G1 X121.3 Y113.7 E22.39599
G1 X129.3 Y113.7 E22.66207
G1 X129.3 Y121.3 E22.91485
G1 X121.3 Y121.3 E23.18093
G1 X121.3 Y129.3 E23.44701
G0 F6000 X121.03 Y129.03
G0 X120.39 Y128.11
G0 X120.11 Y128.11
;TYPE:SKIN
G1 F1200 X114.89 Y128.11 E23.62063
G1 X114.89 Y120.11 E23.88671
G1 X106.89 Y120.11 E24.15279
G1 X106.89 Y114.89 E24.32641
G1 X114.89 Y114.89 E24.59249
G1 X114.89 Y106.89 E24.85857
G1 X120.11 Y106.89 E25.03219
G1 X120.11 Y114.89 E25.29827
G1 X128.11 Y114.89 E25.56435
G1 X128.11 Y120.11 E25.73797
G1 X120.11 Y120.11 E26.00405
G1 X120.11 Y128.11 E26.27013
G0 F6000 X120.39 Y128.11
G0 X120.326 Y128.297
G0 X115.503 Y128.39
G0 X115.503 Y127.948
G1 F1200 X115.049 Y127.494 E26.29149
G0 F6000 X115.049 Y126.929
G1 F1200 X116.069 Y127.948 E26.33944
G0 F6000 X116.635 Y127.948
G1 F1200 X115.049 Y126.363 E26.41402
G0 F6000 X115.049 Y125.797
G1 F1200 X117.2 Y127.948 E26.5152
G0 F6000 X117.766 Y127.948
G1 F1200 X115.049 Y125.232 E26.64297
G0 F6000 X115.049 Y124.666
G1 F1200 X118.332 Y127.948 E26.79737
G0 F6000 X118.897 Y127.948
G1 F1200 X115.049 Y124.1 E26.97837
G0 F6000 X115.049 Y123.535
G1 F1200 X119.463 Y127.948 E27.18597
G0 F6000 X119.95 Y127.869
G1 F1200 X115.049 Y122.969 E27.41647
G0 F6000 X115.049 Y122.403
G1 F1200 X119.95 Y127.303 E27.64697
G0 F6000 X119.95 Y126.738
G1 F1200 X115.049 Y121.838 E27.87748
G0 F6000 X115.049 Y121.272
G1 F1200 X119.95 Y126.172 E28.10798
G0 F6000 X119.95 Y125.606
G1 F1200 X115.049 Y120.706 E28.33849
G0 F6000 X115.049 Y120.14
G1 F1200 X119.95 Y125.041 E28.56902
G0 F6000 X119.95 Y124.475
G1 F1200 X110.524 Y115.049 E29.01239
G0 F6000 X109.958 Y115.049
G1 F1200 X114.858 Y119.949 E29.24287
G0 F6000 X114.292 Y119.949
G1 F1200 X109.392 Y115.049 E29.47335
G0 F6000 X108.827 Y115.049
G1 F1200 X113.726 Y119.949 E29.70381
G0 F6000 X113.161 Y119.949
G1 F1200 X108.261 Y115.049 E29.93429
G0 F6000 X107.695 Y115.049
G1 F1200 X112.595 Y119.949 E30.16477
G0 F6000 X112.029 Y119.949
G1 F1200 X107.13 Y115.049 E30.39523
G0 F6000 X107.05 Y115.535
G1 F1200 X111.464 Y119.949 E30.60285
G0 F6000 X110.898 Y119.949
G1 F1200 X107.05 Y116.101 E30.78384
G0 F6000 X107.05 Y116.666
G1 F1200 X110.332 Y119.949 E30.93824
G0 F6000 X109.767 Y119.949
G1 F1200 X107.05 Y117.232 E31.06604
G0 F6000 X107.05 Y117.798
G1 F1200 X109.201 Y119.949 E31.16722
G0 F6000 X108.635 Y119.949
G1 F1200 X107.05 Y118.364 E31.24177
G0 F6000 X107.05 Y118.929
G1 F1200 X108.069 Y119.949 E31.28973
G0 F6000 X107.504 Y119.949
G1 F1200 X107.05 Y119.495 E31.31108
G0 F6000 X106.61 Y119.495
G0 X106.682 Y114.682
G0 X111.09 Y114.61
G0 X111.09 Y115.049
G1 F1200 X119.95 Y123.909 E31.72783
G0 F6000 X119.95 Y123.344
G1 F1200 X111.655 Y115.049 E32.118
G0 F6000 X112.221 Y115.049
G1 F1200 X119.95 Y122.778 E32.48155
G0 F6000 X119.95 Y122.212
G1 F1200 X112.787 Y115.049 E32.81847
G0 F6000 X113.352 Y115.049
G1 F1200 X119.95 Y121.647 E33.12882
G0 F6000 X119.95 Y121.081
G1 F1200 X113.918 Y115.049 E33.41255
G0 F6000 X114.484 Y115.049
G1 F1200 X119.95 Y120.515 E33.66965
G0 F6000 X119.949 Y119.949
G1 F1200 X115.049 Y115.049 E33.90014
G0 F6000 X115.049 Y114.483
G1 F1200 X120.515 Y119.949 E34.15724
G0 F6000 X121.08 Y119.949
G1 F1200 X115.049 Y113.917 E34.44094
G0 F6000 X115.049 Y113.352
G1 F1200 X121.646 Y119.949 E34.75125
G0 F6000 X122.212 Y119.949
G1 F1200 X115.049 Y112.786 E35.08817
G0 F6000 X115.049 Y112.22
G1 F1200 X122.777 Y119.949 E35.4517
G0 F6000 X123.343 Y119.949
G1 F1200 X115.049 Y111.654 E35.84184
G0 F6000 X115.049 Y111.089
G1 F1200 X123.909 Y119.949 E36.25859
G0 F6000 X124.474 Y119.949
G1 F1200 X115.049 Y110.523 E36.70194
G0 F6000 X115.049 Y109.957
G1 F1200 X119.949 Y114.858 E36.93244
G0 F6000 X120.141 Y115.05
G1 F1200 X125.04 Y119.949 E37.16288
