;FLAVOR:Marlin
;TIME:6478
;Filament used: 4.55757m
;Layer height: 0.16
;MINX:84.5
;MINY:94.5
;MINZ:0.2
;MAXX:150.5
;MAXY:140.5
;MAXZ:45
;Generated with Cura_SteamEngine 4.6.1
M140 S60
M105
M190 S60
M104 S200
M105
M109 S200
M82 ;absolute extrusion mode
; Ender 3 Custom Start G-code
G92 E0 ; Reset Extruder
G28 ; Home all axes
G1 Z2.0 F3000 ; Move Z Axis up little to prevent scratching of Heat Bed
G1 X0.1 Y20 Z0.3 F5000.0 ; Move to start position
G1 X0.1 Y200.0 Z0.3 F1500.0 E15 ; Draw the first line
G1 X0.4 Y200.0 Z0.3 F5000.0 ; Move to side a little
G1 X0.4 Y20 Z0.3 F1500.0 E30 ; Draw the second line
G92 E0 ; Reset Extruder
G1 Z2.0 F3000 ; Move Z Axis up little to prevent scratching of Heat Bed
G1 X5 Y20 Z0.3 F5000.0 ; Move over to prevent blob squish
G92 E0
G92 E0
G1 F1500 E-6.5
;LAYER_COUNT:226
;LAYER:0
M107
G0 F6000 X127.83 Y95.3 Z0.2
;TYPE:SKIRT
G1 F1500 E0
G1 F1200 X138.925 Y95.301 E0.36902
G1 X139.623 Y95.31 E0.39224
G1 X140.524 Y95.361 E0.42225
G1 X141.418 Y95.493 E0.45231
G1 X142.296 Y95.702 E0.48233
G1 X143.153 Y95.989 E0.51239
G1 X143.98 Y96.35 E0.5424
G1 X144.773 Y96.783 E0.57245
G1 X145.524 Y97.284 E0.60248
G1 X146.228 Y97.85 E0.63252
G1 X146.879 Y98.476 E0.66256
G1 X147.472 Y99.157 E0.6926
G1 X148.002 Y99.888 E0.72263
G1 X148.466 Y100.663 E0.75267
G1 X148.86 Y101.476 E0.78272
G1 X149.18 Y102.32 E0.81274
G1 X149.424 Y103.19 E0.84279
G1 X149.59 Y104.078 E0.87284
G1 X149.687 Y105.223 E0.91106
G1 X149.7 Y105.83 E0.93125
G1 X149.699 Y112.21 E1.14345
G1 X149.689 Y112.905 E1.16657
G1 X149.636 Y113.806 E1.19659
G1 X149.503 Y114.7 E1.22665
G1 X149.293 Y115.578 E1.25668
G1 X149.005 Y116.434 E1.28672
G1 X148.642 Y117.261 E1.31676
G1 X148.208 Y118.053 E1.34679
G1 X147.706 Y118.803 E1.37681
G1 X147.139 Y119.506 E1.40685
G1 X146.523 Y120.145 E1.43637
G1 X145.762 Y120.868 E1.47128
G1 X128.589 Y136.631 E2.2466
G1 X128.069 Y137.095 E2.26978
G1 X127.369 Y137.665 E2.2998
G1 X126.622 Y138.172 E2.32983
G1 X125.832 Y138.611 E2.35989
G1 X125.007 Y138.978 E2.38992
G1 X124.153 Y139.271 E2.41995
G1 X123.276 Y139.486 E2.44998
G1 X122.383 Y139.624 E2.48004
G1 X121.466 Y139.682 E2.5106
G1 X120.408 Y139.7 E2.54579
G1 X117.838 Y139.699 E2.63127
G1 X117.136 Y139.689 E2.65462
G1 X116.234 Y139.636 E2.68467
G1 X115.341 Y139.504 E2.7147
G1 X114.463 Y139.293 E2.74473
G1 X113.607 Y139.005 E2.77477
G1 X112.817 Y138.661 E2.80343
G1 X110.254 Y137.413 E2.89824
G1 X107.937 Y136.368 E2.98278
G1 X105.565 Y135.375 E3.06831
G1 X103.219 Y134.474 E3.1519
G1 X100.803 Y133.622 E3.2371
G1 X98.412 Y132.854 E3.32063
G1 X95.973 Y132.145 E3.40511
G1 X93.457 Y131.49 E3.49158
G1 X93.091 Y131.401 E3.50411
G1 X92.224 Y131.148 E3.53415
G1 X91.382 Y130.82 E3.5642
G1 X90.573 Y130.418 E3.59425
G1 X89.803 Y129.947 E3.62427
G1 X89.078 Y129.409 E3.6543
G1 X88.403 Y128.809 E3.68434
G1 X87.783 Y128.152 E3.71438
G1 X87.224 Y127.442 E3.74444
G1 X86.731 Y126.686 E3.77446
G1 X86.306 Y125.889 E3.8045
G1 X85.953 Y125.058 E3.83453
G1 X85.675 Y124.199 E3.86456
G1 X85.474 Y123.318 E3.89461
G1 X85.352 Y122.424 E3.92462
G1 X85.313 Y121.766 E3.94654
G1 X85.3 Y121.157 E3.9668
G1 X85.301 Y106.021 E4.47023
G1 X85.311 Y105.356 E4.49235
G1 X85.365 Y104.454 E4.5224
G1 X85.498 Y103.561 E4.55243
G1 X85.709 Y102.683 E4.58247
G1 X85.998 Y101.827 E4.61252
G1 X86.361 Y101 E4.64256
G1 X86.795 Y100.209 E4.67257
G1 X87.298 Y99.458 E4.70263
G1 X87.866 Y98.756 E4.73266
G1 X88.493 Y98.106 E4.7627
G1 X89.175 Y97.514 E4.79274
G1 X89.907 Y96.985 E4.82278
G1 X90.683 Y96.523 E4.85281
G1 X91.497 Y96.132 E4.88285
G1 X92.342 Y95.813 E4.91289
G1 X93.212 Y95.571 E4.94293
G1 X94.1 Y95.407 E4.97296
G1 X95.223 Y95.313 E5.01044
G1 X95.83 Y95.3 E5.03063
G1 X102.939 Y95.301 E5.26708
G1 X103.637 Y95.311 E5.2903
G1 X104.468 Y95.357 E5.31798
G1 X105.3 Y95.439 E5.34579
G1 X106.559 Y95.584 E5.38794
G1 X109.11 Y95.802 E5.47309
G1 X111.615 Y95.946 E5.55655
G1 X114.184 Y96.02 E5.64203
G1 X116.718 Y96.022 E5.72631
G1 X119.25 Y95.952 E5.81056
G1 X121.78 Y95.81 E5.89484
G1 X124.342 Y95.594 E5.98035
G1 X126.352 Y95.376 E6.0476
G1 X127.224 Y95.313 E6.07668
G1 X127.83 Y95.3 E6.09684
G0 F6000 X103.643 Y94.911
G1 F1200 X104.507 Y94.959 E6.12562
G1 X105.346 Y95.041 E6.15366
G1 X106.64 Y95.19 E6.19698
G1 X109.096 Y95.4 E6.27896
G1 X111.65 Y95.546 E6.36405
G1 X114.195 Y95.62 E6.44873
G1 X116.707 Y95.622 E6.53228
G1 X119.253 Y95.552 E6.61699
G1 X121.758 Y95.412 E6.70044
G1 X124.315 Y95.196 E6.78579
G1 X126.306 Y94.978 E6.85241
G1 X127.212 Y94.913 E6.88262
G1 X127.83 Y94.9 E6.90318
G1 X138.93 Y94.901 E7.27236
G1 X139.628 Y94.91 E7.29558
G1 X140.547 Y94.962 E7.3262
G1 X141.458 Y95.093 E7.35681
G1 X142.354 Y95.303 E7.38742
G1 X143.229 Y95.59 E7.41804
G1 X144.076 Y95.952 E7.44868
G1 X144.888 Y96.386 E7.4793
G1 X145.659 Y96.888 E7.5099
G1 X146.384 Y97.456 E7.54054
G1 X147.057 Y98.085 E7.57118
G1 X147.672 Y98.769 E7.60177
G1 X148.226 Y99.504 E7.63238
G1 X148.714 Y100.285 E7.66301
G1 X149.133 Y101.105 E7.69364
G1 X149.479 Y101.958 E7.72426
G1 X149.749 Y102.838 E7.75487
G1 X149.942 Y103.739 E7.78552
G1 X150.056 Y104.652 E7.81612
G1 X150.087 Y105.212 E7.83477
G1 X150.1 Y105.83 E7.85533
G1 X150.099 Y112.216 E8.06773
G1 X150.089 Y112.911 E8.09085
G1 X150.036 Y113.83 E8.12147
G1 X149.903 Y114.741 E8.15209
G1 X149.692 Y115.637 E8.18271
G1 X149.403 Y116.511 E8.21332
G1 X149.04 Y117.357 E8.24394
G1 X148.605 Y118.168 E8.27455
G1 X148.101 Y118.939 E8.30519
G1 X147.533 Y119.663 E8.33579
G1 X146.799 Y120.435 E8.37122
G1 X146.032 Y121.163 E8.4064
G1 X128.855 Y136.929 E9.18188
G1 X128.335 Y137.393 E9.20505
G1 X127.622 Y137.976 E9.23569
G1 X126.862 Y138.494 E9.26628
G1 X126.059 Y138.945 E9.29691
G1 X125.22 Y139.324 E9.32753
G1 X124.351 Y139.629 E9.35816
G1 X123.459 Y139.857 E9.38878
G1 X122.551 Y140.007 E9.41939
G1 X121.473 Y140.082 E9.45533
G1 X120.408 Y140.1 E9.49076
G1 X117.832 Y140.099 E9.57644
G1 X117.13 Y140.089 E9.59979
G1 X116.211 Y140.036 E9.63041
G1 X115.3 Y139.903 E9.66103
G1 X114.404 Y139.692 E9.69165
G1 X113.529 Y139.404 E9.72228
G1 X112.642 Y139.021 E9.75442
G1 X110.08 Y137.774 E9.84919
G1 X107.78 Y136.736 E9.93312
G1 X105.404 Y135.741 E10.01879
G1 X103.079 Y134.849 E10.10162
G1 X100.695 Y134.008 E10.1857
G1 X98.283 Y133.233 E10.26996
G1 X95.865 Y132.531 E10.35371
G1 X93.389 Y131.886 E10.43881
G1 X92.996 Y131.79 E10.45226
G1 X92.112 Y131.533 E10.48288
G1 X91.253 Y131.2 E10.51352
G1 X90.427 Y130.794 E10.54414
G1 X89.639 Y130.318 E10.57475
G1 X88.895 Y129.776 E10.60537
G1 X88.201 Y129.17 E10.63601
G1 X87.563 Y128.507 E10.66662
G1 X86.984 Y127.791 E10.69724
G1 X86.469 Y127.028 E10.72786
G1 X86.023 Y126.223 E10.75847
G1 X85.648 Y125.382 E10.7891
G1 X85.348 Y124.511 E10.81974
G1 X85.124 Y123.618 E10.85036
G1 X84.979 Y122.709 E10.88097
G1 X84.913 Y121.777 E10.91205
G1 X84.9 Y121.157 E10.93268
G1 X84.901 Y106.015 E11.4363
G1 X84.911 Y105.35 E11.45842
G1 X84.965 Y104.431 E11.48904
G1 X85.098 Y103.52 E11.51966
G1 X85.31 Y102.624 E11.55029
G1 X85.599 Y101.749 E11.58093
G1 X85.963 Y100.904 E11.61154
G1 X86.398 Y100.093 E11.64214
G1 X86.903 Y99.322 E11.6728
G1 X87.472 Y98.599 E11.7034
G1 X88.102 Y97.927 E11.73404
G1 X88.788 Y97.313 E11.76466
G1 X89.524 Y96.761 E11.79526
G1 X90.306 Y96.274 E11.8259
G1 X91.127 Y95.858 E11.85651
G1 X91.981 Y95.514 E11.88713
G1 X92.861 Y95.245 E11.91774
G1 X93.762 Y95.054 E11.94837
G1 X94.676 Y94.942 E11.979
G1 X95.212 Y94.913 E11.99685
G1 X95.83 Y94.9 E12.01741
G1 X102.945 Y94.901 E12.25406
G1 X103.643 Y94.911 E12.27728
G0 F6000 X103.649 Y94.511
G1 F1200 X104.545 Y94.561 E12.30712
G1 X105.391 Y94.644 E12.3354
G1 X106.649 Y94.789 E12.37751
G1 X109.152 Y95.003 E12.46107
G1 X111.685 Y95.148 E12.54545
G1 X114.172 Y95.22 E12.62821
G1 X116.696 Y95.222 E12.71215
G1 X119.22 Y95.152 E12.79614
G1 X121.735 Y95.012 E12.87991
G1 X124.288 Y94.796 E12.96513
G1 X125.672 Y94.649 E13.01142
G1 X126.26 Y94.581 E13.03111
G1 X127.201 Y94.514 E13.06249
G1 X127.83 Y94.5 E13.08341
G1 X138.935 Y94.501 E13.45277
G1 X139.633 Y94.51 E13.47598
G1 X140.569 Y94.562 E13.50716
G1 X141.498 Y94.694 E13.53837
G1 X142.412 Y94.904 E13.56956
G1 X143.305 Y95.191 E13.60076
G1 X144.17 Y95.554 E13.63196
G1 X145.001 Y95.988 E13.66314
G1 X145.792 Y96.492 E13.69434
G1 X146.537 Y97.062 E13.72554
G1 X147.231 Y97.693 E13.75674
G1 X147.868 Y98.38 E13.7879
G1 X148.445 Y99.12 E13.81911
G1 X148.957 Y99.906 E13.85031
G1 X149.4 Y100.733 E13.88151
G1 X149.771 Y101.594 E13.91269
G1 X150.067 Y102.484 E13.94389
G1 X150.286 Y103.396 E13.97508
G1 X150.427 Y104.323 E14.00627
G1 X150.487 Y105.201 E14.03554
G1 X150.5 Y105.83 E14.05647
G1 X150.499 Y112.221 E14.26903
G1 X150.489 Y112.916 E14.29215
G1 X150.435 Y113.853 E14.32337
G1 X150.302 Y114.781 E14.35455
G1 X150.091 Y115.695 E14.38575
G1 X149.802 Y116.587 E14.41693
G1 X149.438 Y117.452 E14.44815
G1 X149.002 Y118.282 E14.47933
G1 X148.497 Y119.072 E14.51051
G1 X147.927 Y119.816 E14.54169
G1 X147.075 Y120.725 E14.58313
G1 X146.303 Y121.457 E14.61851
G1 X129.122 Y137.228 E15.3942
G1 X128.602 Y137.692 E15.41738
G1 X127.876 Y138.286 E15.44858
G1 X127.102 Y138.816 E15.47978
G1 X126.286 Y139.278 E15.51097
G1 X125.434 Y139.669 E15.54215
G1 X124.551 Y139.986 E15.57335
G1 X123.644 Y140.226 E15.60455
G1 X122.721 Y140.389 E15.63573
G1 X121.48 Y140.482 E15.67712
G1 X120.408 Y140.5 E15.71278
G1 X117.826 Y140.499 E15.79866
G1 X117.124 Y140.489 E15.82201
G1 X116.188 Y140.436 E15.85319
G1 X115.26 Y140.303 E15.88437
G1 X114.346 Y140.091 E15.91558
G1 X113.453 Y139.803 E15.94679
G1 X112.467 Y139.381 E15.98246
G1 X109.89 Y138.127 E16.07778
G1 X107.627 Y137.106 E16.16035
G1 X105.243 Y136.108 E16.24631
G1 X102.951 Y135.228 E16.32797
G1 X100.577 Y134.39 E16.4117
G1 X98.164 Y133.615 E16.496
G1 X95.758 Y132.916 E16.57933
G1 X93.26 Y132.266 E16.66518
G1 X92.901 Y132.178 E16.67748
G1 X92 Y131.917 E16.70868
G1 X91.125 Y131.581 E16.73985
G1 X90.281 Y131.17 E16.77107
G1 X89.476 Y130.69 E16.80225
G1 X88.714 Y130.143 E16.83344
G1 X88.002 Y129.532 E16.86465
G1 X87.344 Y128.864 E16.89584
G1 X86.746 Y128.141 E16.92704
G1 X86.212 Y127.371 E16.95821
G1 X85.745 Y126.557 E16.98942
G1 X85.349 Y125.707 E17.02061
G1 X85.027 Y124.826 E17.05181
G1 X84.781 Y123.921 E17.083
G1 X84.613 Y122.999 E17.11417
G1 X84.513 Y121.787 E17.15462
G1 X84.5 Y121.157 E17.17558
G1 X84.501 Y106.009 E17.6794
G1 X84.511 Y105.344 E17.70152
G1 X84.565 Y104.407 E17.73274
G1 X84.699 Y103.479 E17.76392
G1 X84.911 Y102.565 E17.79513
G1 X85.2 Y101.673 E17.82632
G1 X85.565 Y100.809 E17.85751
G1 X86.001 Y99.979 E17.8887
G1 X86.507 Y99.189 E17.9199
G1 X87.078 Y98.445 E17.95109
G1 X87.71 Y97.752 E17.98229
G1 X88.399 Y97.116 E18.01348
G1 X89.14 Y96.541 E18.04467
G1 X89.927 Y96.031 E18.07586
G1 X90.755 Y95.59 E18.10706
G1 X91.617 Y95.221 E18.13825
G1 X92.508 Y94.927 E18.16946
G1 X93.42 Y94.709 E18.20064
G1 X94.347 Y94.571 E18.23182
G1 X95.201 Y94.513 E18.26029
G1 X95.83 Y94.5 E18.28121
G1 X102.951 Y94.501 E18.51806
G1 X103.649 Y94.511 E18.54127
G1 F1500 E12.04127
;MESH:Part4.STL
G0 F6000 X104.153 Y104.847
G0 X104.153 Y116.847
G0 X103.649 Y117.92
G0 X102.318 Y118.682
G0 X102.318 Y106.682
G0 X96.682 Y106.682
G0 X96.682 Y120.318
G0 X117.704 Y121.072
G0 X118.276 Y128.5
;TYPE:WALL-INNER
G1 F1500 E18.54127
G1 F1200 X118.276 Y120.5 E18.80736
G1 X96.5 Y120.5 E19.53163
G1 X96.5 Y106.5 E19.99727
G1 X102.5 Y106.5 E20.19683
G1 X102.5 Y118.5 E20.59595
G1 X128.5 Y118.5 E21.46072
G1 X128.5 Y106.5 E21.85984
G1 X138.5 Y106.5 E22.19244
G1 X138.5 Y112.329 E22.38631
G1 X120.885 Y128.5 E23.18163
G1 X118.276 Y128.5 E23.26841
G0 F6000 X117.876 Y128.9
G1 F1200 X117.876 Y120.9 E23.53449
G1 X96.1 Y120.9 E24.25876
G1 X96.1 Y106.1 E24.75101
G1 X102.9 Y106.1 E24.97718
G1 X102.9 Y118.1 E25.3763
G1 X128.1 Y118.1 E26.21446
G1 X128.1 Y106.1 E26.61358
G1 X138.9 Y106.1 E26.97279
G1 X138.9 Y112.506 E27.18585
G1 X121.042 Y128.9 E27.99214
G1 X117.876 Y128.9 E28.09745
G0 F6000 X117.476 Y129.3
;TYPE:WALL-OUTER
G1 F1200 X117.476 Y121.3 E28.36353
G1 X95.7 Y121.3 E29.0878
G1 X95.7 Y105.7 E29.60666
G1 X103.3 Y105.7 E29.85943
G1 X103.3 Y117.7 E30.25856
G1 X127.7 Y117.7 E31.0701
G1 X127.7 Y105.7 E31.46923
G1 X139.3 Y105.7 E31.85504
G1 X139.3 Y112.683 E32.0873
G1 X121.199 Y129.3 E32.90456
G1 X117.476 Y129.3 E33.02839
G0 F6000 X117.746 Y129.03
G0 X118.386 Y128.11
G0 X118.666 Y128.11
;TYPE:SKIN
G1 F1200 X118.666 Y120.11 E33.29447
G1 X96.89 Y120.11 E34.01874
G1 X96.89 Y106.89 E34.45844
G1 X102.11 Y106.89 E34.63206
G1 X102.11 Y118.89 E35.03118
G1 X128.89 Y118.89 E35.92188
G1 X128.89 Y106.89 E36.32101
G1 X138.11 Y106.89 E36.62766
G1 X138.11 Y112.159 E36.80291
G1 X120.734 Y128.11 E37.58743
G1 X118.666 Y128.11 E37.65621
G0 F6000 X118.386 Y128.11
G0 X117.704 Y121.072
G0 X97.321 Y120.39
G0 X97.321 Y119.949
G1 F1200 X97.049 Y119.677 E37.669
G0 F6000 X97.049 Y119.111
G1 F1200 X97.887 Y119.949 E37.70842
G0 F6000 X98.453 Y119.949
G1 F1200 X97.049 Y118.545 E37.77446
G0 F6000 X97.049 Y117.98
G1 F1200 X99.018 Y119.949 E37.86708
G0 F6000 X99.584 Y119.949
G1 F1200 X97.049 Y117.414 E37.98632
G0 F6000 X97.049 Y116.848
G1 F1200 X100.15 Y119.949 E38.13218
G0 F6000 X100.716 Y119.949
G1 F1200 X97.049 Y116.283 E38.30464
G0 F6000 X97.049 Y115.717
G1 F1200 X101.281 Y119.949 E38.5037
G0 F6000 X101.847 Y119.949
G1 F1200 X97.049 Y115.151 E38.72938
G0 F6000 X97.049 Y114.585
G1 F1200 X102.413 Y119.949 E38.98169
G0 F6000 X102.978 Y119.949
G1 F1200 X102.079 Y119.049 E39.024
G0 F6000 X101.949 Y118.92
G1 F1200 X97.049 Y114.02 E39.25448
G0 F6000 X97.049 Y113.454
G1 F1200 X101.949 Y118.354 E39.48496
G0 F6000 X101.949 Y117.789
G1 F1200 X97.049 Y112.888 E39.71546
G0 F6000 X97.049 Y112.323
G1 F1200 X101.949 Y117.223 E39.94594
G0 F6000 X101.949 Y116.657
G1 F1200 X97.049 Y111.757 E40.17643
G0 F6000 X97.049 Y111.191
G1 F1200 X101.949 Y116.092 E40.40693
G0 F6000 X101.949 Y115.526
G1 F1200 X97.049 Y110.626 E40.63741
G0 F6000 X97.049 Y110.06
G1 F1200 X101.949 Y114.96 E40.86789
G0 F6000 X101.949 Y114.395
G1 F1200 X97.049 Y109.494 E41.0984
G0 F6000 X97.049 Y108.929
G1 F1200 X101.949 Y113.829 E41.32888
G0 F6000 X101.949 Y113.263
G1 F1200 X97.049 Y108.363 E41.55936
G0 F6000 X97.049 Y107.797
G1 F1200 X101.949 Y112.697 E41.78984
G0 F6000 X101.949 Y112.132
G1 F1200 X97.049 Y107.232 E42.02032
G0 F6000 X97.432 Y107.049
G1 F1200 X101.949 Y111.566 E42.23279
G0 F6000 X101.949 Y111
G1 F1200 X97.998 Y107.049 E42.41863
G0 F6000 X98.564 Y107.049
G1 F1200 X101.949 Y110.435 E42.57787
G0 F6000 X101.949 Y109.869
G1 F1200 X99.13 Y107.049 E42.71049
G0 F6000 X99.695 Y107.049
G1 F1200 X101.949 Y109.303 E42.81651
G0 F6000 X101.949 Y108.738
G1 F1200 X100.261 Y107.049 E42.89594
G0 F6000 X100.827 Y107.049
G1 F1200 X101.949 Y108.172 E42.94874
G0 F6000 X101.949 Y107.606
G1 F1200 X101.392 Y107.049 E42.97493
G0 F6000 X101.392 Y106.61
G0 X102.318 Y106.682
G0 X102.645 Y118.61
G0 X102.645 Y119.049
G1 F1200 X103.544 Y119.949 E43.01724
G0 F6000 X104.11 Y119.949
G1 F1200 X103.21 Y119.049 E43.05958
G0 F6000 X103.776 Y119.049
G1 F1200 X104.675 Y119.949 E43.10189
G0 F6000 X105.241 Y119.949
G1 F1200 X104.342 Y119.049 E43.1442
G0 F6000 X104.907 Y119.049
G1 F1200 X105.807 Y119.949 E43.18653
G0 F6000 X106.372 Y119.949
G1 F1200 X105.473 Y119.049 E43.22884
G0 F6000 X106.039 Y119.049
G1 F1200 X106.938 Y119.949 E43.27115
G0 F6000 X107.504 Y119.949
G1 F1200 X106.604 Y119.049 E43.31348
G0 F6000 X107.17 Y119.049
G1 F1200 X108.069 Y119.949 E43.35579
G0 F6000 X108.635 Y119.949
G1 F1200 X107.736 Y119.049 E43.3981
G0 F6000 X108.301 Y119.049
G1 F1200 X109.201 Y119.949 E43.44044
G0 F6000 X109.767 Y119.949
G1 F1200 X108.867 Y119.049 E43.48277
G0 F6000 X109.433 Y119.049
G1 F1200 X110.332 Y119.949 E43.52508
G0 F6000 X110.898 Y119.949
G1 F1200 X109.998 Y119.049 E43.56741
G0 F6000 X110.564 Y119.049
